varunagrawal/dyne/data/pybullet/pybullet_measurements.csv
# timestamps,wx,wy,wz,ax,ay,az,FR_contact,FL_contact,RR_contact,RL_contact,FL_hip_fixed,FL_hip_joint,FL_lower_joint,FL_toe_fixed,FL_upper_joint,FR_hip_fixed,FR_hip_joint,FR_lower_joint,FR_toe_fixed,FR_upper_joint,RL_hip_fixed,RL_hip_joint,RL_lower_joint,RL_toe_fixed,RL_upper_joint,RR_hip_fixed,RR_hip_joint,RR_lower_joint,RR_toe_fixed,RR_upper_joint,imu_joint
0.000000000000000000e+00,-1.120758242905139923e-03,3.420142829418182373e-02,1.402825582772493362e-04,9.175685373162430214e-02,-5.792194172581721125e-03,9.809569161297551076e+00,1.000000000000000000e+00,1.000000000000000000e+00,1.000000000000000000e+00,1.000000000000000000e+00,0.000000000000000000e+00,1.743035632169785904e-04,-1.833811370518500850e+00,0.000000000000000000e+00,9.230325389728721852e-01,0.000000000000000000e+00,1.725394262872777305e-04,-1.833020355834793502e+00,0.000000000000000000e+00,9.241253681585301916e-01,0.000000000000000000e+00,1.371670610410983876e-04,-1.852836761810773725e+00,0.000000000000000000e+00,8.782774194143698754e-01,0.000000000000000000e+00,1.400365246700972571e-04,-1.852004887945608580e+00,0.000000000000000000e+00,8.778316003433423997e-01,0.000000000000000000e+00
5.000000000000000104e-03,2.141907252371311188e-02,9.722576476633548737e-03,-1.127530820667743683e-03,4.067151862544279517e+00,-1.555051610007578966e-01,1.064305871354790867e+01,1.000000000000000000e+00,1.000000000000000000e+00,1.000000000000000000e+00,1.000000000000000000e+00,0.000000000000000000e+00,1.495000457244545250e-04,-1.833761008975878015e+00,0.000000000000000000e+00,9.233800061426943317e-01,0.000000000000000000e+00,1.477392432199727023e-04,-1.832979812802510322e+00,0.000000000000000000e+00,9.244769210376552193e-01,0.000000000000000000e+00,1.109856532892796832e-04,-1.852580187448646720e+00,0.000000000000000000e+00,8.785276895793548979e-01,0.000000000000000000e+00,1.139183681399907167e-04,-1.851757633525457303e+00,0.000000000000000000e+00,8.780853856696752002e-01,0.000000000000000000e+00
1.000000000000000021e-02,4.260052368044853210e-02,-1.427211984992027283e-02,-2.326494082808494568e-03,4.067362796893689847e+00,-1.550894931553356559e-01,1.063252268163340553e+01,1.000000000000000000e+00,1.000000000000000000e+00,1.000000000000000000e+00,1.000000000000000000e+00,0.000000000000000000e+00,3.485710921306536450e-05,-1.833420533392179586e+00,0.000000000000000000e+00,9.241160307570591703e-01,0.000000000000000000e+00,3.310908847996361492e-05,-1.832727308099985519e+00,0.000000000000000000e+00,9.252531556443566174e-01,0.000000000000000000e+00,-1.277981173725716146e-05,-1.852266584333865929e+00,0.000000000000000000e+00,8.793004299485408515e-01,0.000000000000000000e+00,-9.754303321260837461e-06,-1.851523539806742447e+00,0.000000000000000000e+00,8.788912337952157205e-01,0.000000000000000000e+00
1.499999999999999944e-02,6.150342151522636414e-02,-3.732776641845703125e-02,-3.408547490835189819e-03,4.065943826292028440e+00,-1.539127628808873993e-01,1.061899912409822377e+01,1.000000000000000000e+00,1.000000000000000000e+00,1.000000000000000000e+00,1.000000000000000000e+00,0.000000000000000000e+00,-1.654351884378129787e-04,-1.832776300613786491e+00,0.000000000000000000e+00,9.251861974931954169e-01,0.000000000000000000e+00,-1.671922653104231072e-04,-1.832250799018450005e+00,0.000000000000000000e+00,9.264007264338760539e-01,0.000000000000000000e+00,-2.299325459593275992e-04,-1.851959594471400905e+00,0.000000000000000000e+00,8.805803700567224057e-01,0.000000000000000000e+00,-2.268285016106682487e-04,-1.851367432352226450e+00,0.000000000000000000e+00,8.802346803357132821e-01,0.000000000000000000e+00
2.000000000000000042e-02,7.819951325654983521e-02,-5.940091982483863831e-02,-4.379180725663900375e-03,4.063074401073227371e+00,-1.517040084801675459e-01,1.060302482470568108e+01,1.000000000000000000e+00,1.000000000000000000e+00,1.000000000000000000e+00,1.000000000000000000e+00,0.000000000000000000e+00,-4.404920263495248943e-04,-1.831835913990190745e+00,0.000000000000000000e+00,9.265884363138586766e-01,0.000000000000000000e+00,-4.422937203287513066e-04,-1.831550925987816436e+00,0.000000000000000000e+00,9.279146312817320164e-01,0.000000000000000000e+00,-5.288732495252284043e-04,-1.851655973727462934e+00,0.000000000000000000e+00,8.823605159771862327e-01,0.000000000000000000e+00,-5.257239827287340768e-04,-1.851280104362262646e+00,0.000000000000000000e+00,8.821065191079286993e-01,0.000000000000000000e+00
2.500000000000000139e-02,9.280629456043243408e-02,-8.046337217092514038e-02,-5.246000830084085464e-03,4.058801547245411534e+00,-1.484554220485902187e-01,1.058471953093647677e+01,1.000000000000000000e+00,1.000000000000000000e+00,1.000000000000000000e+00,1.000000000000000000e+00,0.000000000000000000e+00,-7.796392505389193031e-04,-1.830607710539886135e+00,0.000000000000000000e+00,9.283201646261599604e-01,0.000000000000000000e+00,-7.815365269474768570e-04,-1.830629465124517186e+00,0.000000000000000000e+00,9.297896262658523758e-01,0.000000000000000000e+00,-8.982609383641887695e-04,-1.851351737696798283e+00,0.000000000000000000e+00,8.846329691711688481e-01,0.000000000000000000e+00,-8.951216687838898373e-04,-1.851251697687144926e+00,0.000000000000000000e+00,8.844967308254221283e-01,0.000000000000000000e+00
2.999999999999999889e-02,1.054426729679107666e-01,-1.004885733127593994e-01,-6.016239523887634277e-03,4.053153021777350595e+00,-1.441731299247087927e-01,1.056414494148950745e+01,1.000000000000000000e+00,1.000000000000000000e+00,1.000000000000000000e+00,1.000000000000000000e+00,0.000000000000000000e+00,-1.172783410119689453e-03,-1.829098991074174618e+00,0.000000000000000000e+00,9.303775257020702183e-01,0.000000000000000000e+00,-1.174841910388539331e-03,-1.829487595596378746e+00,0.000000000000000000e+00,9.320194525009695141e-01,0.000000000000000000e+00,-1.327398306110077423e-03,-1.851042226195395379e+00,0.000000000000000000e+00,8.873891091285175392e-01,0.000000000000000000e+00,-1.324346105842842637e-03,-1.851271955419708792e+00,0.000000000000000000e+00,8.873947331806421035e-01,0.000000000000000000e+00
3.500000000000000333e-02,1.162284612655639648e-01,-1.194532737135887146e-01,-6.696891970932483673e-03,4.046173653827557892e+00,-1.388668709905896137e-01,1.054139141952336800e+01,1.000000000000000000e+00,1.000000000000000000e+00,1.000000000000000000e+00,1.000000000000000000e+00,0.000000000000000000e+00,-1.610440680968796201e-03,-1.827316670194494952e+00,0.000000000000000000e+00,9.327557847831048354e-01,0.000000000000000000e+00,-1.612738199024899488e-03,-1.828126413633832881e+00,0.000000000000000000e+00,9.345971475544389007e-01,0.000000000000000000e+00,-1.806251162626138504e-03,-1.850722122680968029e+00,0.000000000000000000e+00,8.906196074149445030e-01,0.000000000000000000e+00,-1.803382757316494963e-03,-1.851330244464438390e+00,0.000000000000000000e+00,8.907893878827869427e-01,0.000000000000000000e+00
4.000000000000000083e-02,1.252827793359756470e-01,-1.373374462127685547e-01,-7.294598966836929321e-03,4.037915395476672664e+00,-1.325500298158145962e-01,1.051655763386414755e+01,1.000000000000000000e+00,1.000000000000000000e+00,1.000000000000000000e+00,1.000000000000000000e+00,0.000000000000000000e+00,-2.083752498480328976e-03,-1.825267277061292326e+00,0.000000000000000000e+00,9.354493834354467019e-01,0.000000000000000000e+00,-2.086375248753741252e-03,-1.826546972339797126e+00,0.000000000000000000e+00,9.375151094730943546e-01,0.000000000000000000e+00,-2.325456146435215133e-03,-1.850385477557120906e+00,0.000000000000000000e+00,8.943144489133215691e-01,0.000000000000000000e+00,-2.322884196902939152e-03,-1.851415575553852610e+00,0.000000000000000000e+00,8.946690119855009726e-01,0.000000000000000000e+00
4.499999999999999833e-02,1.327240914106369019e-01,-1.541244983673095703e-01,-7.815659977495670319e-03,4.028436790233542730e+00,-1.252395518182733425e-01,1.048975050291560507e+01,1.000000000000000000e+00,1.000000000000000000e+00,1.000000000000000000e+00,1.000000000000000000e+00,0.000000000000000000e+00,-2.584493468911411209e-03,-1.822956957646808318e+00,0.000000000000000000e+00,9.384519957881182206e-01,0.000000000000000000e+00,-2.587531617463331886e-03,-1.824750263398011052e+00,0.000000000000000000e+00,9.407651319709587900e-01,0.000000000000000000e+00,-2.876321103648614690e-03,-1.850025734066685468e+00,0.000000000000000000e+00,8.984629544008271296e-01,0.000000000000000000e+00,-2.874169506244519598e-03,-1.851516622960815983e+00,0.000000000000000000e+00,8.990213901687654774e-01,0.000000000000000000e+00
5.000000000000000278e-02,1.386687308549880981e-01,-1.698010414838790894e-01,-8.265991695225238800e-03,3.325460024042220297e+00,1.274851525661019114e+00,1.032031059393753125e+01,1.000000000000000000e+00,1.000000000000000000e+00,1.000000000000000000e+00,1.000000000000000000e+00,0.000000000000000000e+00,-3.105075644456579357e-03,-1.820391475983625718e+00,0.000000000000000000e+00,9.417565851830285162e-01,0.000000000000000000e+00,-3.108618518472890547e-03,-1.822737198984815787e+00,0.000000000000000000e+00,9.443384415383174746e-01,0.000000000000000000e+00,-3.450822907406962160e-03,-1.849635754776161489e+00,0.000000000000000000e+00,9.030538038074122920e-01,0.000000000000000000e+00,-3.449221570445096686e-03,-1.851621744017589055e+00,0.000000000000000000e+00,9.038337878279224524e-01,0.000000000000000000e+00
5.500000000000000028e-02,1.404077112674713135e-01,-1.172198876738548279e-01,1.025450043380260468e-02,3.830447855695900738e+00,2.595121047442758844e+00,6.635094082724370068e+00,0.000000000000000000e+00,1.000000000000000000e+00,1.000000000000000000e+00,1.000000000000000000e+00,0.000000000000000000e+00,-3.720956554037654386e-03,-1.817728784031862110e+00,0.000000000000000000e+00,9.452978138145038400e-01,0.000000000000000000e+00,-3.466109623376002931e-03,-1.820997173672325831e+00,0.000000000000000000e+00,9.475639522656510438e-01,0.000000000000000000e+00,-4.093057686415727849e-03,-1.849085185107180562e+00,0.000000000000000000e+00,9.071815974991676024e-01,0.000000000000000000e+00,-4.092451280841034877e-03,-1.851583973035370256e+00,0.000000000000000000e+00,9.089018917901502403e-01,0.000000000000000000e+00
5.999999999999999778e-02,1.718476265668869019e-01,-2.489516139030456543e-01,-3.137415274977684021e-02,5.121468734469784678e+00,2.650178660956154175e+00,3.464569563997211610e+00,0.000000000000000000e+00,1.000000000000000000e+00,1.000000000000000000e+00,0.000000000000000000e+00,0.000000000000000000e+00,-4.539660098388234241e-03,-1.815434925648019560e+00,0.000000000000000000e+00,9.495006888112531573e-01,0.000000000000000000e+00,-1.002350501480896248e-04,-1.838906394385043219e+00,0.000000000000000000e+00,9.563984249561526818e-01,0.000000000000000000e+00,-7.707802562157861637e-03,-1.866448301553557343e+00,0.000000000000000000e+00,9.162184631969297888e-01,0.000000000000000000e+00,-5.081652499359968177e-03,-1.851937369188088933e+00,0.000000000000000000e+00,9.145487245643215690e-01,0.000000000000000000e+00
6.500000000000000222e-02,2.297061085700988770e-01,-3.838945925235748291e-01,-1.230274979025125504e-02,4.992377794025256499e+00,2.882860203905563967e+00,4.222438536977731083e+00,0.000000000000000000e+00,1.000000000000000000e+00,1.000000000000000000e+00,0.000000000000000000e+00,0.000000000000000000e+00,-5.705838313167658007e-03,-1.813400382915950626e+00,0.000000000000000000e+00,9.549999910275679404e-01,0.000000000000000000e+00,7.482981309631894437e-03,-1.886839857874267556e+00,0.000000000000000000e+00,9.783434197095274287e-01,0.000000000000000000e+00,-1.489629753921644685e-02,-1.912751093697551363e+00,0.000000000000000000e+00,9.373998211445901951e-01,0.000000000000000000e+00,-6.589931175069604907e-03,-1.853894993164838967e+00,0.000000000000000000e+00,9.221057011378819279e-01,0.000000000000000000e+00
7.000000000000000666e-02,2.961269319057464600e-01,-4.869029819965362549e-01,4.105158895254135132e-02,4.449235914590761176e+00,3.018396128179034132e+00,5.177733350299094539e+00,0.000000000000000000e+00,1.000000000000000000e+00,1.000000000000000000e+00,0.000000000000000000e+00,0.000000000000000000e+00,-7.519998464469731733e-03,-1.811597563589852689e+00,0.000000000000000000e+00,9.616313552831119438e-01,0.000000000000000000e+00,1.533555623140812722e-02,-1.951367174412901528e+00,0.000000000000000000e+00,1.009984714109523729e+00,0.000000000000000000e+00,-2.208502170302083234e-02,-1.975220034064492536e+00,0.000000000000000000e+00,9.671070829191121820e-01,0.000000000000000000e+00,-8.561381366340234042e-03,-1.857433939476742069e+00,0.000000000000000000e+00,9.317011266739700925e-01,0.000000000000000000e+00
7.499999999999999722e-02,3.415355682373046875e-01,-5.468419194221496582e-01,9.856373816728591919e-02,3.819156325236058080e+00,3.026646623670610659e+00,6.542243062776192275e+00,0.000000000000000000e+00,1.000000000000000000e+00,1.000000000000000000e+00,0.000000000000000000e+00,0.000000000000000000e+00,-1.008214521474700733e-02,-1.810122698882550729e+00,0.000000000000000000e+00,9.691683671800703781e-01,0.000000000000000000e+00,2.070718981452154828e-02,-2.023230366567307037e+00,0.000000000000000000e+00,1.047408427245569706e+00,0.000000000000000000e+00,-2.686291201515084159e-02,-2.044842881810522428e+00,0.000000000000000000e+00,1.001691428332168954e+00,0.000000000000000000e+00,-1.091840720885319492e-02,-1.862243611775171281e+00,0.000000000000000000e+00,9.430429362580012853e-01,0.000000000000000000e+00
8.000000000000000167e-02,3.398553729057312012e-01,-5.633547306060791016e-01,1.394062638282775879e-01,3.282813907429904976e+00,2.927685826760644261e+00,8.345450342993087745e+00,0.000000000000000000e+00,1.000000000000000000e+00,1.000000000000000000e+00,0.000000000000000000e+00,0.000000000000000000e+00,-1.325072271721823743e-02,-1.809052044585102381e+00,0.000000000000000000e+00,9.773823750360015605e-01,0.000000000000000000e+00,2.247308895402263390e-02,-2.096379817132241197e+00,0.000000000000000000e+00,1.086658243390656864e+00,0.000000000000000000e+00,-2.818265090869678455e-02,-2.115609736678293995e+00,0.000000000000000000e+00,1.038084486519049499e+00,0.000000000000000000e+00,-1.352557888040351562e-02,-1.867808731782034215e+00,0.000000000000000000e+00,9.555910240655646204e-01,0.000000000000000000e+00
8.500000000000000611e-02,2.783675193786621094e-01,-5.416350364685058594e-01,1.575858443975448608e-01,2.917224808164573524e+00,2.778102392256669884e+00,1.033071122447945989e+01,0.000000000000000000e+00,1.000000000000000000e+00,1.000000000000000000e+00,0.000000000000000000e+00,0.000000000000000000e+00,-1.670614257865874960e-02,-1.808379551696636556e+00,0.000000000000000000e+00,9.860490141925227769e-01,0.000000000000000000e+00,2.113429782248337982e-02,-2.166775354943113019e+00,0.000000000000000000e+00,1.124041574411181132e+00,0.000000000000000000e+00,-2.621281238556464818e-02,-2.183312004671789985e+00,0.000000000000000000e+00,1.073672650535926643e+00,0.000000000000000000e+00,-1.618200283114449439e-02,-1.873485238650112183e+00,0.000000000000000000e+00,9.686870960387748974e-01,0.000000000000000000e+00
8.999999999999999667e-02,1.636893153190612793e-01,-4.896286129951477051e-01,1.594664752483367920e-01,2.729634306437827895e+00,2.637237315449623143e+00,1.210709615370185332e+01,0.000000000000000000e+00,1.000000000000000000e+00,1.000000000000000000e+00,0.000000000000000000e+00,0.000000000000000000e+00,-2.007316635871098792e-02,-1.808024411697205069e+00,0.000000000000000000e+00,9.949515475482835214e-01,0.000000000000000000e+00,1.830379540429738147e-02,-2.231552665096741883e+00,0.000000000000000000e+00,1.156505881875910413e+00,0.000000000000000000e+00,-2.184250334930210730e-02,-2.244850077822240220e+00,0.000000000000000000e+00,1.106078324024893478e+00,0.000000000000000000e+00,-1.864890044401607341e-02,-1.878612317963547662e+00,0.000000000000000000e+00,9.816838822670588272e-01,0.000000000000000000e+00
9.500000000000000111e-02,1.865976676344871521e-02,-4.170915186405181885e-01,1.549580395221710205e-01,2.687360368259565480e+00,2.534347778788841765e+00,1.337547254354782389e+01,0.000000000000000000e+00,1.000000000000000000e+00,1.000000000000000000e+00,0.000000000000000000e+00,0.000000000000000000e+00,-2.305119802604886983e-02,-1.807871014067204074e+00,0.000000000000000000e+00,1.003894840506119879e+00,0.000000000000000000e+00,1.586425122146974120e-02,-2.288587062796300309e+00,0.000000000000000000e+00,1.181902175685425771e+00,0.000000000000000000e+00,-1.608866720722071722e-02,-2.297967830407040335e+00,0.000000000000000000e+00,1.133128965855211945e+00,0.000000000000000000e+00,-2.071304908395965247e-02,-1.882634708042825844e+00,0.000000000000000000e+00,9.940563603422654104e-01,0.000000000000000000e+00
1.000000000000000056e-01,-1.292999386787414551e-01,-3.345156610012054443e-01,1.504929065704345703e-01,2.756228909844959940e+00,2.463744447602854049e+00,1.402573072059153780e+01,0.000000000000000000e+00,1.000000000000000000e+00,1.000000000000000000e+00,0.000000000000000000e+00,0.000000000000000000e+00,-2.549181670386068896e-02,-1.807801182374774607e+00,0.000000000000000000e+00,1.012725891951805846e+00,0.000000000000000000e+00,1.526188762200967990e-02,-2.336397810994117474e+00,0.000000000000000000e+00,1.199022157682381851e+00,0.000000000000000000e+00,-9.761284633179836967e-03,-2.341219998960125448e+00,0.000000000000000000e+00,1.153116526615089121e+00,0.000000000000000000e+00,-2.225388828919198925e-02,-1.885185808521654849e+00,0.000000000000000000e+00,1.005464253395143448e+00,0.000000000000000000e+00
1.049999999999999961e-01,-2.587376236915588379e-01,-2.537699341773986816e-01,1.479818671941757202e-01,2.878818815119549068e+00,2.404350763298576332e+00,1.411051992533449528e+01,0.000000000000000000e+00,1.000000000000000000e+00,1.000000000000000000e+00,0.000000000000000000e+00,0.000000000000000000e+00,-2.739786904178988583e-02,-1.807704500758612332e+00,0.000000000000000000e+00,1.021350796638382574e+00,0.000000000000000000e+00,1.725563901270242562e-02,-2.374192033039993710e+00,0.000000000000000000e+00,1.207525991901931439e+00,0.000000000000000000e+00,-3.436535502828743163e-03,-2.373957261220057902e+00,0.000000000000000000e+00,1.165172028791739312e+00,0.000000000000000000e+00,-2.326915165656024201e-02,-1.886109624205306590e+00,0.000000000000000000e+00,1.015763471099342619e+00,0.000000000000000000e+00
1.100000000000000006e-01,-3.595436215400695801e-01,-1.816609650850296021e-01,1.477080881595611572e-01,2.994536398065889671e+00,2.341837608469153231e+00,1.376755626917130648e+01,0.000000000000000000e+00,1.000000000000000000e+00,1.000000000000000000e+00,0.000000000000000000e+00,0.000000000000000000e+00,-2.887453223338148217e-02,-1.807483963917829728e+00,0.000000000000000000e+00,1.029737588426602901e+00,0.000000000000000000e+00,2.199213056802586108e-02,-2.401829638207785944e+00,0.000000000000000000e+00,1.207819333696708020e+00,0.000000000000000000e+00,2.514492596448112370e-03,-2.396185332586465044e+00,0.000000000000000000e+00,1.169369745206145561e+00,0.000000000000000000e+00,-2.385072986605981521e-02,-1.885431990678720027e+00,0.000000000000000000e+00,1.024977235229469263e+00,0.000000000000000000e+00
1.150000000000000050e-01,-4.297712445259094238e-01,-1.221055015921592712e-01,1.491958796977996826e-01,3.088758154077032803e+00,2.274662605357860468e+00,1.314461354954088890e+01,0.000000000000000000e+00,1.000000000000000000e+00,1.000000000000000000e+00,0.000000000000000000e+00,0.000000000000000000e+00,-3.006961758437877788e-02,-1.807071752917856822e+00,0.000000000000000000e+00,1.037901179782435124e+00,0.000000000000000000e+00,2.918072165878660487e-02,-2.419734006149006245e+00,0.000000000000000000e+00,1.200767649617831445e+00,0.000000000000000000e+00,7.945443896311356682e-03,-2.408429059679069173e+00,0.000000000000000000e+00,1.166400122883513468e+00,0.000000000000000000e+00,-2.413430898874652925e-02,-1.883296357576381919e+00,0.000000000000000000e+00,1.033230750024103139e+00,0.000000000000000000e+00
1.199999999999999956e-01,-4.722463190555572510e-01,-7.678885012865066528e-02,1.519227176904678345e-01,3.166147070538929853e+00,2.207494112262263553e+00,1.237452111396527599e+01,0.000000000000000000e+00,1.000000000000000000e+00,1.000000000000000000e+00,0.000000000000000000e+00,0.000000000000000000e+00,-3.113359058309502631e-02,-1.806430569921442242e+00,0.000000000000000000e+00,1.045890151878475782e+00,0.000000000000000000e+00,3.830916752207173120e-02,-2.428785411854137877e+00,0.000000000000000000e+00,1.187519758397961533e+00,0.000000000000000000e+00,1.289277741315293831e-02,-2.411636176601151149e+00,0.000000000000000000e+00,1.157298328305753188e+00,0.000000000000000000e+00,-2.426242366233471656e-02,-1.879912504136227680e+00,0.000000000000000000e+00,1.040706026721558208e+00,0.000000000000000000e+00
1.250000000000000000e-01,-4.920520782470703125e-01,-4.590211808681488037e-02,1.555020511150360107e-01,3.238343176853355043e+00,2.145528478611852918e+00,1.155994215564280125e+01,0.000000000000000000e+00,1.000000000000000000e+00,1.000000000000000000e+00,0.000000000000000000e+00,0.000000000000000000e+00,-3.219853051473674926e-02,-1.805548638780803516e+00,0.000000000000000000e+00,1.053774300092102933e+00,0.000000000000000000e+00,4.881483757943384100e-02,-2.430207673843360894e+00,0.000000000000000000e+00,1.169362423275248863e+00,0.000000000000000000e+00,1.751057328125722734e-02,-2.407071988841207766e+00,0.000000000000000000e+00,1.143237073970198914e+00,0.000000000000000000e+00,-2.436277363192440940e-02,-1.875517199198511342e+00,0.000000000000000000e+00,1.047609604573660702e+00,0.000000000000000000e+00
1.300000000000000044e-01,-4.950723648071289062e-01,-2.875017561018466949e-02,1.596699357032775879e-01,3.315879991103265922e+00,2.091678215002887864e+00,1.077014904511420035e+01,0.000000000000000000e+00,1.000000000000000000e+00,1.000000000000000000e+00,0.000000000000000000e+00,0.000000000000000000e+00,-3.336925720666674561e-02,-1.804432136095910355e+00,0.000000000000000000e+00,1.061634539358018658e+00,0.000000000000000000e+00,6.019674377119611786e-02,-2.425462963222503099e+00,0.000000000000000000e+00,1.147603507810099455e+00,0.000000000000000000e+00,2.200155220226760952e-02,-2.396218652018941242e+00,0.000000000000000000e+00,1.125400947500962756e+00,0.000000000000000000e+00,-2.453801482911162346e-02,-1.870346902245742404e+00,0.000000000000000000e+00,1.054151157339076939e+00,0.000000000000000000e+00
1.350000000000000089e-01,-4.871115684509277344e-01,-2.416008338332176208e-02,1.642290204763412476e-01,3.404791406868782122e+00,2.046657743027363807e+00,1.004563059607165343e+01,0.000000000000000000e+00,1.000000000000000000e+00,1.000000000000000000e+00,0.000000000000000000e+00,0.000000000000000000e+00,-3.472099820044872998e-02,-1.803097886321879839e+00,0.000000000000000000e+00,1.069555574596505965e+00,0.000000000000000000e+00,7.207272228868301378e-02,-2.416156011395599545e+00,0.000000000000000000e+00,1.123488172032494292e+00,0.000000000000000000e+00,2.656704016614854988e-02,-2.380681590469935660e+00,0.000000000000000000e+00,1.104919107171994819e+00,0.000000000000000000e+00,-2.486245904748742713e-02,-1.864620694682988189e+00,0.000000000000000000e+00,1.060530281242790140e+00,0.000000000000000000e+00
1.400000000000000133e-01,-4.733049571514129639e-01,-3.071917220950126648e-02,1.690058112144470215e-01,3.506307111901248330e+00,2.010053557085750064e+00,9.406665807869506679e+00,0.000000000000000000e+00,1.000000000000000000e+00,1.000000000000000000e+00,0.000000000000000000e+00,0.000000000000000000e+00,-3.630085480521940550e-02,-1.801567631498327327e+00,0.000000000000000000e+00,1.077620884403857282e+00,0.000000000000000000e+00,8.419333790902938652e-02,-2.403947021721505539e+00,0.000000000000000000e+00,1.098147287181330256e+00,0.000000000000000000e+00,3.138263785090142366e-02,-2.362105150210501048e+00,0.000000000000000000e+00,1.082830616983646577e+00,0.000000000000000000e+00,-2.538308477801472923e-02,-1.858531011348522721e+00,0.000000000000000000e+00,1.066928906065098825e+00,0.000000000000000000e+00
1.449999999999999900e-01,-4.577623903751373291e-01,-4.689295589923858643e-02,1.738340854644775391e-01,3.617871991112776797e+00,1.981179354306437324e+00,8.861947358964405552e+00,0.000000000000000000e+00,1.000000000000000000e+00,1.000000000000000000e+00,0.000000000000000000e+00,0.000000000000000000e+00,-3.813176096231736534e-02,-1.799863955710546026e+00,0.000000000000000000e+00,1.085909230673287595e+00,0.000000000000000000e+00,9.642762462574075433e-02,-2.390472834473571062e+00,0.000000000000000000e+00,1.072571129202189777e+00,0.000000000000000000e+00,3.659355006832860219e-02,-2.342097317131167422e+00,0.000000000000000000e+00,1.060066127604386566e+00,0.000000000000000000e+00,-2.612337146078675190e-02,-1.852239631803486386e+00,0.000000000000000000e+00,1.073507221771316411e+00,0.000000000000000000e+00
1.499999999999999944e-01,-4.434130489826202393e-01,-7.107452303171157837e-02,1.785513609647750854e-01,3.734582625795257904e+00,1.959447822696233965e+00,8.414809260234758170e+00,0.000000000000000000e+00,1.000000000000000000e+00,1.000000000000000000e+00,0.000000000000000000e+00,0.000000000000000000e+00,-4.021793286185267047e-02,-1.798007565078755032e+00,0.000000000000000000e+00,1.094492061270976313e+00,0.000000000000000000e+00,1.087352856131463957e-01,-2.377276024473666372e+00,0.000000000000000000e+00,1.047598852654214818e+00,0.000000000000000000e+00,4.231967087275861905e-02,-2.322162672176539377e+00,0.000000000000000000e+00,1.037437150401108621e+00,0.000000000000000000e+00,-2.708868549604673617e-02,-1.845877092931873298e+00,0.000000000000000000e+00,1.080401757689470443e+00,0.000000000000000000e+00
1.549999999999999989e-01,-4.319676160812377930e-01,-1.016139909625053406e-01,1.829971075057983398e-01,3.705518716808270163e+00,1.954445792053969289e+00,8.408932536637511390e+00,0.000000000000000000e+00,1.000000000000000000e+00,1.000000000000000000e+00,0.000000000000000000e+00,0.000000000000000000e+00,-4.255091636333333677e-02,-1.796014564358668908e+00,0.000000000000000000e+00,1.103430819787032391e+00,0.000000000000000000e+00,1.211361282419972235e-01,-2.365741615078604809e+00,0.000000000000000000e+00,1.023915874763795086e+00,0.000000000000000000e+00,4.866224258505428418e-02,-2.303643186152186662e+00,0.000000000000000000e+00,1.015628902985116433e+00,0.000000000000000000e+00,-2.827247881652497630e-02,-1.839541548679744620e+00,0.000000000000000000e+00,1.087723134824218230e+00,0.000000000000000000e+00
1.600000000000000033e-01,-4.088160395622253418e-01,-1.169016882777214050e-01,1.928057223558425903e-01,3.603746551070655890e+00,1.932193287784523816e+00,8.731791979288885841e+00,0.000000000000000000e+00,1.000000000000000000e+00,1.000000000000000000e+00,0.000000000000000000e+00,0.000000000000000000e+00,-4.515798248371583057e-02,-1.793897896531966740e+00,0.000000000000000000e+00,1.112718085192856865e+00,0.000000000000000000e+00,1.330773999140590913e-01,-2.355191471445362339e+00,0.000000000000000000e+00,1.001351576156881640e+00,0.000000000000000000e+00,5.600244833516047904e-02,-2.285888836952582714e+00,0.000000000000000000e+00,9.945092689199125369e-01,0.000000000000000000e+00,-2.967764950540864588e-02,-1.833234999872074056e+00,0.000000000000000000e+00,1.095474132608289075e+00,0.000000000000000000e+00
1.650000000000000078e-01,-3.827349841594696045e-01,-1.274166107177734375e-01,1.958265751600265503e-01,3.564833033433638221e+00,1.864208819449636012e+00,8.937754031864706405e+00,0.000000000000000000e+00,1.000000000000000000e+00,1.000000000000000000e+00,0.000000000000000000e+00,0.000000000000000000e+00,-4.808610411398747675e-02,-1.791643213549957814e+00,0.000000000000000000e+00,1.122277140409344787e+00,0.000000000000000000e+00,1.440901312034932047e-01,-2.344018311353447181e+00,0.000000000000000000e+00,9.790791482708135485e-01,0.000000000000000000e+00,6.427971015451465486e-02,-2.267506000806570388e+00,0.000000000000000000e+00,9.735211564873661461e-01,0.000000000000000000e+00,-3.134361774978197679e-02,-1.826847155382132826e+00,0.000000000000000000e+00,1.103520918752918023e+00,0.000000000000000000e+00
1.700000000000000122e-01,-3.515565693378448486e-01,-1.332753449678421021e-01,1.964210718870162964e-01,3.496585664821482364e+00,1.769596253230745653e+00,9.057528778167723615e+00,0.000000000000000000e+00,1.000000000000000000e+00,1.000000000000000000e+00,0.000000000000000000e+00,0.000000000000000000e+00,-5.133882482744983600e-02,-1.789207289569063386e+00,0.000000000000000000e+00,1.132061186529279784e+00,0.000000000000000000e+00,1.544862438612432110e-01,-2.332112909959767943e+00,0.000000000000000000e+00,9.568873466965563956e-01,0.000000000000000000e+00,7.291934388307856618e-02,-2.248486114322445495e+00,0.000000000000000000e+00,9.526977594954283424e-01,0.000000000000000000e+00,-3.330862627199002168e-02,-1.820293599998818346e+00,0.000000000000000000e+00,1.111763436092076729e+00,0.000000000000000000e+00
1.750000000000000167e-01,-3.150109648704528809e-01,-1.355440318584442139e-01,1.962476521730422974e-01,3.412970739664121567e+00,1.668633841835434062e+00,9.123034406519542117e+00,0.000000000000000000e+00,1.000000000000000000e+00,1.000000000000000000e+00,0.000000000000000000e+00,0.000000000000000000e+00,-5.493184129558491280e-02,-1.786561211192453147e+00,0.000000000000000000e+00,1.142026149899760812e+00,0.000000000000000000e+00,1.644016633848178199e-01,-2.319368316057024426e+00,0.000000000000000000e+00,9.347977580576884993e-01,0.000000000000000000e+00,8.162411090581352113e-02,-2.228681466628501529e+00,0.000000000000000000e+00,9.319202350409984126e-01,0.000000000000000000e+00,-3.560161631640802044e-02,-1.813518679311063364e+00,0.000000000000000000e+00,1.120128694615607490e+00,0.000000000000000000e+00
1.799999999999999933e-01,-2.749066948890686035e-01,-1.352083384990692139e-01,1.954429298639297485e-01,3.331990370634781318e+00,1.572194547356014382e+00,9.158462314797249704e+00,0.000000000000000000e+00,1.000000000000000000e+00,1.000000000000000000e+00,0.000000000000000000e+00,0.000000000000000000e+00,-5.888095442916038008e-02,-1.783682948958327685e+00,0.000000000000000000e+00,1.152132191875917089e+00,0.000000000000000000e+00,1.738529103965422984e-01,-2.305716214970954692e+00,0.000000000000000000e+00,9.128697799496555687e-01,0.000000000000000000e+00,9.021746823481097133e-02,-2.208040127836524036e+00,0.000000000000000000e+00,9.110919846844354186e-01,0.000000000000000000e+00,-3.824317589569384973e-02,-1.806486429447324848e+00,0.000000000000000000e+00,1.128562223254359731e+00,0.000000000000000000e+00
1.849999999999999978e-01,-2.340176701545715332e-01,-1.327400952577590942e-01,1.941494941711425781e-01,3.250419468126078293e+00,1.474808098903918729e+00,9.182605902268411668e+00,0.000000000000000000e+00,1.000000000000000000e+00,1.000000000000000000e+00,0.000000000000000000e+00,0.000000000000000000e+00,-6.319235042904974842e-02,-1.780555480773668098e+00,0.000000000000000000e+00,1.162346192565072434e+00,0.000000000000000000e+00,1.828250808876590583e-01,-2.291120023822954543e+00,0.000000000000000000e+00,8.911199559924943836e-01,0.000000000000000000e+00,9.857954432750551388e-02,-2.186571159283153598e+00,0.000000000000000000e+00,8.901667208958385924e-01,0.000000000000000000e+00,-4.124278973492215977e-02,-1.799168656255550225e+00,0.000000000000000000e+00,1.137019042346451236e+00,0.000000000000000000e+00
1.900000000000000022e-01,-1.950434893369674683e-01,-1.284809410572052002e-01,1.925138980150222778e-01,3.169082860125665313e+00,1.375015598945220408e+00,9.205244511084389458e+00,0.000000000000000000e+00,1.000000000000000000e+00,1.000000000000000000e+00,0.000000000000000000e+00,0.000000000000000000e+00,-6.785835504017924402e-02,-1.777166259173639018e+00,0.000000000000000000e+00,1.172639554554845809e+00,0.000000000000000000e+00,1.913073189073334068e-01,-2.275557086140419294e+00,0.000000000000000000e+00,8.695237943160858407e-01,0.000000000000000000e+00,1.066458819335204117e-01,-2.164285062408166205e+00,0.000000000000000000e+00,8.691112627390753520e-01,0.000000000000000000e+00,-4.459482333243511287e-02,-1.791538662641001256e+00,0.000000000000000000e+00,1.145457375525577470e+00,0.000000000000000000e+00
1.950000000000000067e-01,-1.598945856094360352e-01,-1.227445825934410095e-01,1.906064599752426147e-01,3.090104592347524992e+00,1.273666549484552046e+00,9.232667889807906647e+00,0.000000000000000000e+00,1.000000000000000000e+00,1.000000000000000000e+00,0.000000000000000000e+00,0.000000000000000000e+00,-7.285847904365605476e-02,-1.773505580616328903e+00,0.000000000000000000e+00,1.182986812676375843e+00,0.000000000000000000e+00,1.993062460999156238e-01,-2.259012823167574791e+00,0.000000000000000000e+00,8.480346513283560927e-01,0.000000000000000000e+00,1.143960470313590549e-01,-2.141184490348347236e+00,0.000000000000000000e+00,8.478940567087509539e-01,0.000000000000000000e+00,-4.827974281686828184e-02,-1.783569513487939462e+00,0.000000000000000000e+00,1.153836957596853008e+00,0.000000000000000000e+00
2.000000000000000111e-01,-1.292966902256011963e-01,-1.158008947968482971e-01,1.884554326534271240e-01,3.015117719222182746e+00,1.171745791937316872e+00,9.268523917628124664e+00,0.000000000000000000e+00,1.000000000000000000e+00,1.000000000000000000e+00,0.000000000000000000e+00,0.000000000000000000e+00,-7.816389789551853040e-02,-1.769564260098316355e+00,0.000000000000000000e+00,1.193364222544651465e+00,0.000000000000000000e+00,2.068459634328989882e-01,-2.241477936071420984e+00,0.000000000000000000e+00,8.265997518448435777e-01,0.000000000000000000e+00,1.218355428935217616e-01,-2.117266348038667534e+00,0.000000000000000000e+00,8.264865418543655418e-01,0.000000000000000000e+00,-5.226908232015741590e-02,-1.775233921132854276e+00,0.000000000000000000e+00,1.162118775709515939e+00,0.000000000000000000e+00
2.050000000000000155e-01,-1.026025116443634033e-01,-1.080727577209472656e-01,1.860754787921905518e-01,2.945329883881092403e+00,1.070225405109372030e+00,9.314100562943501416e+00,0.000000000000000000e+00,1.000000000000000000e+00,1.000000000000000000e+00,0.000000000000000000e+00,0.000000000000000000e+00,-8.374369374830573087e-02,-1.765331207891267296e+00,0.000000000000000000e+00,1.203748292921557272e+00,0.000000000000000000e+00,2.139588675412436025e-01,-2.222946504985402694e+00,0.000000000000000000e+00,8.051719522755291791e-01,0.000000000000000000e+00,1.289792578861876371e-01,-2.092523932657652352e+00,0.000000000000000000e+00,8.048662499054680675e-01,0.000000000000000000e+00,-5.653203790281983304e-02,-1.766505250341652511e+00,0.000000000000000000e+00,1.170265856941111515e+00,0.000000000000000000e+00
2.099999999999999922e-01,-7.864309102296829224e-02,-9.993853420019149780e-02,1.834879070520401001e-01,2.881988076362523188e+00,9.712581181383292961e-01,9.368672091712552330e+00,0.000000000000000000e+00,1.000000000000000000e+00,1.000000000000000000e+00,0.000000000000000000e+00,0.000000000000000000e+00,-8.957059704002216793e-02,-1.760790965421768828e+00,0.000000000000000000e+00,1.214114576582015603e+00,0.000000000000000000e+00,2.206750365531724434e-01,-2.203415299611551692e+00,0.000000000000000000e+00,7.837170018359725931e-01,0.000000000000000000e+00,1.358401558796553110e-01,-2.066949102883635092e+00,0.000000000000000000e+00,7.830193472097374263e-01,0.000000000000000000e+00,-6.104148388533633951e-02,-1.757359399097198960e+00,0.000000000000000000e+00,1.178245210378419783e+00,0.000000000000000000e+00
2.149999999999999967e-01,-5.646307393908500671e-02,-9.154838323593139648e-02,1.807300150394439697e-01,2.825368390891229708e+00,8.761284727930935823e-01,9.431100402933974891e+00,0.000000000000000000e+00,1.000000000000000000e+00,1.000000000000000000e+00,0.000000000000000000e+00,0.000000000000000000e+00,-9.562291461411386029e-02,-1.755923991629312120e+00,0.000000000000000000e+00,1.224437438296181346e+00,0.000000000000000000e+00,2.270161839071145604e-01,-2.182883583688392637e+00,0.000000000000000000e+00,7.622154897035468002e-01,0.000000000000000000e+00,1.424250018026575193e-01,-2.040533780439413469e+00,0.000000000000000000e+00,7.609409673572903321e-01,0.000000000000000000e+00,-6.577586730275240823e-02,-1.747775077442488501e+00,0.000000000000000000e+00,1.186027868932993279e+00,0.000000000000000000e+00
2.200000000000000011e-01,-3.524965047836303711e-02,-8.302155137062072754e-02,1.778358668088912964e-01,2.774826016444413845e+00,7.846744497686750641e-01,9.500321928483746348e+00,0.000000000000000000e+00,1.000000000000000000e+00,1.000000000000000000e+00,0.000000000000000000e+00,0.000000000000000000e+00,-1.018837540817120052e-01,-1.750706867548964984e+00,0.000000000000000000e+00,1.234689278036645188e+00,0.000000000000000000e+00,2.329941943065702570e-01,-2.161352310318971348e+00,0.000000000000000000e+00,7.406600776232672434e-01,0.000000000000000000e+00,1.487344871077702635e-01,-2.013270556098567532e+00,0.000000000000000000e+00,7.386333288043661627e-01,0.000000000000000000e+00,-7.071851857878491687e-02,-1.737731121684397362e+00,0.000000000000000000e+00,1.193586349163649807e+00,0.000000000000000000e+00
2.250000000000000056e-01,-1.444952748715877533e-02,-7.443623989820480347e-02,1.748346239328384399e-01,2.729619634594569355e+00,6.965919260971318305e-01,9.574891889962596991e+00,0.000000000000000000e+00,1.000000000000000000e+00,1.000000000000000000e+00,0.000000000000000000e+00,0.000000000000000000e+00,-1.083401305111423713e-01,-1.745114839456221478e+00,0.000000000000000000e+00,1.244842007655336813e+00,0.000000000000000000e+00,2.386122992773530849e-01,-2.138823133972595603e+00,0.000000000000000000e+00,7.190513608764552700e-01,0.000000000000000000e+00,1.547645863609596883e-01,-1.985152594441048635e+00,0.000000000000000000e+00,7.161035309031819063e-01,0.000000000000000000e+00,-7.585667777150995050e-02,-1.727208015715944622e+00,0.000000000000000000e+00,1.200895468464722837e+00,0.000000000000000000e+00
2.300000000000000100e-01,6.265603471547365189e-03,-6.584454327821731567e-02,1.717488020658493042e-01,2.689188308132669292e+00,6.116845310833869398e-01,9.652985796189533119e+00,0.000000000000000000e+00,1.000000000000000000e+00,1.000000000000000000e+00,0.000000000000000000e+00,0.000000000000000000e+00,-1.149815216285745151e-01,-1.739121225887794164e+00,0.000000000000000000e+00,1.254866380129588288e+00,0.000000000000000000e+00,2.438676223081550631e-01,-2.115297668447340573e+00,0.000000000000000000e+00,6.973939283321601845e-01,0.000000000000000000e+00,1.605083873445861953e-01,-1.956173208957936671e+00,0.000000000000000000e+00,6.933611566815589544e-01,0.000000000000000000e+00,-8.118003464591969087e-02,-1.716186229470670455e+00,0.000000000000000000e+00,1.207930994696930105e+00,0.000000000000000000e+00
2.350000000000000144e-01,2.705917507410049438e-02,-5.727902427315711975e-02,1.685957610607147217e-01,2.653218971777594248e+00,5.299271357190121767e-01,9.732583932048525455e+00,0.000000000000000000e+00,1.000000000000000000e+00,1.000000000000000000e+00,0.000000000000000000e+00,0.000000000000000000e+00,-1.217987971243982559e-01,-1.732698438183677414e+00,0.000000000000000000e+00,1.264732560354236091e+00,0.000000000000000000e+00,2.487536860961975516e-01,-2.090777142495509722e+00,0.000000000000000000e+00,6.756936869450574923e-01,0.000000000000000000e+00,1.659575975389311064e-01,-1.926325505220455758e+00,0.000000000000000000e+00,6.704164287215331752e-01,0.000000000000000000e+00,-8.667973207224974330e-02,-1.704646275762003338e+00,0.000000000000000000e+00,1.214669530041979861e+00,0.000000000000000000e+00
2.399999999999999911e-01,4.799078777432441711e-02,-4.876276105642318726e-02,1.653877496719360352e-01,2.621598448429402595e+00,4.514307817964901548e-01,9.811639945393681117e+00,0.000000000000000000e+00,1.000000000000000000e+00,1.000000000000000000e+00,0.000000000000000000e+00,0.000000000000000000e+00,-1.287834425100627400e-01,-1.725818557726080060e+00,0.000000000000000000e+00,1.274410470083142011e+00,0.000000000000000000e+00,2.532623411336121233e-01,-2.065262297259378599e+00,0.000000000000000000e+00,6.539564514186408939e-01,0.000000000000000000e+00,1.711035394026246825e-01,-1.895602133354525876e+00,0.000000000000000000e+00,6.472790621904668251e-01,0.000000000000000000e+00,-9.234761065462483709e-02,-1.692568619719541756e+00,0.000000000000000000e+00,1.221088361009487810e+00,0.000000000000000000e+00
2.449999999999999956e-01,6.905841082334518433e-02,-4.031486809253692627e-02,1.621338278055191040e-01,2.594302018630698647e+00,3.763927442361245657e-01,9.888212974585634640e+00,0.000000000000000000e+00,1.000000000000000000e+00,1.000000000000000000e+00,0.000000000000000000e+00,0.000000000000000000e+00,-1.359270939815021284e-01,-1.718453785419787438e+00,0.000000000000000000e+00,1.283870128099121377e+00,0.000000000000000000e+00,2.573850799227584418e-01,-2.038753478362229199e+00,0.000000000000000000e+00,6.321874491945450592e-01,0.000000000000000000e+00,1.759377453974381722e-01,-1.863995071609932053e+00,0.000000000000000000e+00,6.239577685101213023e-01,0.000000000000000000e+00,-9.817576093820226668e-02,-1.679933705314954784e+00,0.000000000000000000e+00,1.227165461405871349e+00,0.000000000000000000e+00
2.500000000000000000e-01,9.022442251443862915e-02,-3.195256367325782776e-02,1.588406115770339966e-01,2.571308409981672316e+00,3.050528307853038745e-01,9.960563696712821269e+00,0.000000000000000000e+00,1.000000000000000000e+00,1.000000000000000000e+00,0.000000000000000000e+00,0.000000000000000000e+00,-1.432212910878906953e-01,-1.710576788656233971e+00,0.000000000000000000e+00,1.293081964970492548e+00,0.000000000000000000e+00,2.611138300520155497e-01,-2.011250670382259909e+00,0.000000000000000000e+00,6.103912449014445851e-01,0.000000000000000000e+00,1.804523121319321632e-01,-1.831495375037629048e+00,0.000000000000000000e+00,6.004600555226409231e-01,0.000000000000000000e+00,-1.041562839862898993e-01,-1.666722030104774266e+00,0.000000000000000000e+00,1.232879570558904625e+00,0.000000000000000000e+00
2.550000000000000044e-01,1.114342883229255676e-01,-2.368944510817527771e-02,1.555140614509582520e-01,4.210021208047084684e+00,-3.013372410273733593e+00,1.167693517607681386e+01,0.000000000000000000e+00,1.000000000000000000e+00,1.000000000000000000e+00,0.000000000000000000e+00,0.000000000000000000e+00,-1.506573696951218344e-01,-1.702160971953314617e+00,0.000000000000000000e+00,1.302017102219786171e+00,0.000000000000000000e+00,2.644413885229783268e-01,-1.982753448682453179e+00,0.000000000000000000e+00,5.885717209778970060e-01,0.000000000000000000e+00,1.846401117107346612e-01,-1.798092816221469992e+00,0.000000000000000000e+00,5.767921099518135142e-01,0.000000000000000000e+00,-1.102811823983015083e-01,-1.652914219083130076e+00,0.000000000000000000e+00,1.238210285281452272e+00,0.000000000000000000e+00
2.600000000000000089e-01,8.797530084848403931e-02,-5.018856003880500793e-02,1.439501941204071045e-01,5.241940940041733832e+00,-5.530059719023400433e+00,1.407387009418291335e+01,0.000000000000000000e+00,1.000000000000000000e+00,1.000000000000000000e+00,0.000000000000000000e+00,0.000000000000000000e+00,-1.580233679874956387e-01,-1.692901209590477185e+00,0.000000000000000000e+00,1.310644492541649386e+00,0.000000000000000000e+00,2.683180065369326628e-01,-1.952111567096766809e+00,0.000000000000000000e+00,5.679598865652925044e-01,0.000000000000000000e+00,1.907912835212960678e-01,-1.735393863873164300e+00,0.000000000000000000e+00,5.547197109879874466e-01,0.000000000000000000e+00,-1.164143374395625596e-01,-1.638537511879041064e+00,0.000000000000000000e+00,1.243341785404032063e+00,0.000000000000000000e+00
2.650000000000000133e-01,2.074957191944122314e-01,7.933926768600940704e-03,5.318880081176757812e-02,4.914120529640484847e+00,-5.096303839596653340e+00,1.400735423378477762e+01,0.000000000000000000e+00,1.000000000000000000e+00,1.000000000000000000e+00,1.000000000000000000e+00,0.000000000000000000e+00,-1.649350334936993401e-01,-1.682041566013367184e+00,0.000000000000000000e+00,1.318472541783640262e+00,0.000000000000000000e+00,2.740620272545690184e-01,-1.908703656782627656e+00,0.000000000000000000e+00,5.489557179190552860e-01,0.000000000000000000e+00,1.967353325066476810e-01,-1.645549266915496966e+00,0.000000000000000000e+00,5.499226231445607516e-01,0.000000000000000000e+00,-1.223624029941707964e-01,-1.623119376114610990e+00,0.000000000000000000e+00,1.247904667065441009e+00,0.000000000000000000e+00
2.700000000000000178e-01,1.826321482658386230e-01,-2.265865914523601532e-02,1.839720457792282104e-02,5.179385923423001969e+00,-5.368727677674705490e+00,1.307638495542529533e+01,0.000000000000000000e+00,1.000000000000000000e+00,1.000000000000000000e+00,1.000000000000000000e+00,0.000000000000000000e+00,-1.715613546226541219e-01,-1.669580077880607583e+00,0.000000000000000000e+00,1.325370423340406889e+00,0.000000000000000000e+00,2.813062232994520406e-01,-1.851364765501432919e+00,0.000000000000000000e+00,5.307703452237652053e-01,0.000000000000000000e+00,1.911157882609706427e-01,-1.663021227559405402e+00,0.000000000000000000e+00,5.720629823652472190e-01,0.000000000000000000e+00,-1.285221108114217026e-01,-1.606461568419355057e+00,0.000000000000000000e+00,1.251503280076295743e+00,0.000000000000000000e+00
2.750000000000000222e-01,1.591583639383316040e-01,-5.093548074364662170e-02,-1.246518362313508987e-02,4.936403304776735723e+00,-4.809424757514029203e+00,1.116564480781256918e+01,0.000000000000000000e+00,1.000000000000000000e+00,1.000000000000000000e+00,1.000000000000000000e+00,0.000000000000000000e+00,-1.774746164581161578e-01,-1.655512320594264120e+00,0.000000000000000000e+00,1.331572197918751810e+00,0.000000000000000000e+00,2.902570521809796356e-01,-1.779209496011864955e+00,0.000000000000000000e+00,5.129047116685097052e-01,0.000000000000000000e+00,1.856917399068483132e-01,-1.677195355795766840e+00,0.000000000000000000e+00,5.937789182645369923e-01,0.000000000000000000e+00,-1.342433491753517172e-01,-1.588951233623904669e+00,0.000000000000000000e+00,1.254823722761683191e+00,0.000000000000000000e+00
2.800000000000000266e-01,3.716613948345184326e-01,5.667606368660926819e-02,-5.397973209619522095e-02,4.782650298746808915e+00,-4.560329738330701765e+00,1.055803451120200442e+01,1.000000000000000000e+00,1.000000000000000000e+00,1.000000000000000000e+00,1.000000000000000000e+00,0.000000000000000000e+00,-1.827039418967293383e-01,-1.639889643919519635e+00,0.000000000000000000e+00,1.337078935360944243e+00,0.000000000000000000e+00,3.005425308796909611e-01,-1.691170334712491563e+00,0.000000000000000000e+00,4.941468536293445180e-01,0.000000000000000000e+00,1.805528634086779605e-01,-1.688903014994734386e+00,0.000000000000000000e+00,6.153178477588855388e-01,0.000000000000000000e+00,-1.395307065090688747e-01,-1.570602064788338526e+00,0.000000000000000000e+00,1.257867328745162050e+00,0.000000000000000000e+00
2.850000000000000311e-01,3.789578974246978760e-01,4.898559674620628357e-02,-7.769564539194107056e-02,4.830649143216094288e+00,-4.706001157826098513e+00,1.147065094929212314e+01,1.000000000000000000e+00,1.000000000000000000e+00,1.000000000000000000e+00,1.000000000000000000e+00,0.000000000000000000e+00,-1.885936588177141993e-01,-1.623680065494289781e+00,0.000000000000000000e+00,1.341917162308454259e+00,0.000000000000000000e+00,3.046923167139458655e-01,-1.694449234565861939e+00,0.000000000000000000e+00,5.030154410836237266e-01,0.000000000000000000e+00,1.743951921729982868e-01,-1.698133304742576843e+00,0.000000000000000000e+00,6.359633578084599170e-01,0.000000000000000000e+00,-1.457148472099128456e-01,-1.551404259460758217e+00,0.000000000000000000e+00,1.259888952547303820e+00,0.000000000000000000e+00
2.899999999999999800e-01,3.645140230655670166e-01,3.888908773660659790e-02,-9.676720201969146729e-02,4.671390211946392590e+00,-4.482896124028909135e+00,1.093482542299330262e+01,1.000000000000000000e+00,1.000000000000000000e+00,1.000000000000000000e+00,1.000000000000000000e+00,0.000000000000000000e+00,-1.940094584605126793e-01,-1.606167225617161742e+00,0.000000000000000000e+00,1.346103740648124436e+00,0.000000000000000000e+00,3.095151633601099239e-01,-1.699597536019542110e+00,0.000000000000000000e+00,5.163369285819330301e-01,0.000000000000000000e+00,1.684710161401137829e-01,-1.705768351564570295e+00,0.000000000000000000e+00,6.565454631692657639e-01,0.000000000000000000e+00,-1.516049420301052719e-01,-1.531413600513398920e+00,0.000000000000000000e+00,1.261569035024169283e+00,0.000000000000000000e+00
2.949999999999999845e-01,3.502196073532104492e-01,3.163759037852287292e-02,-1.131032258272171021e-01,4.403002680507294819e+00,-4.266043289085714285e+00,1.044115233945091425e+01,1.000000000000000000e+00,1.000000000000000000e+00,1.000000000000000000e+00,1.000000000000000000e+00,0.000000000000000000e+00,-1.989129174566099667e-01,-1.587437291698418518e+00,0.000000000000000000e+00,1.349689474095492780e+00,0.000000000000000000e+00,3.150172106177441256e-01,-1.706739519463148724e+00,0.000000000000000000e+00,5.347136094330012801e-01,0.000000000000000000e+00,1.628827009851606666e-01,-1.712112944405808967e+00,0.000000000000000000e+00,6.771385732396393298e-01,0.000000000000000000e+00,-1.571297929856372566e-01,-1.510657253669104083e+00,0.000000000000000000e+00,1.262935695947037029e+00,0.000000000000000000e+00
2.999999999999999889e-01,3.345082402229309082e-01,2.543445676565170288e-02,-1.274552941322326660e-01,1.319639958557079273e+00,-4.604587833183109602e+00,9.550013478132571620e+00,1.000000000000000000e+00,1.000000000000000000e+00,1.000000000000000000e+00,1.000000000000000000e+00,0.000000000000000000e+00,-2.033344658397217286e-01,-1.567585409057013601e+00,0.000000000000000000e+00,1.352707567473533601e+00,0.000000000000000000e+00,3.211669651491050326e-01,-1.714396580424771832e+00,0.000000000000000000e+00,5.555718663799193990e-01,0.000000000000000000e+00,1.576463727484369859e-01,-1.717364242541776997e+00,0.000000000000000000e+00,6.977560987883177912e-01,0.000000000000000000e+00,-1.622978282462200772e-01,-1.489178254139287505e+00,0.000000000000000000e+00,1.263996377669039495e+00,0.000000000000000000e+00
3.049999999999999933e-01,7.637455314397811890e-02,1.441932171583175659e-01,-1.198490262031555176e-01,-2.141785375637037081e+00,-5.372131680350434202e+00,5.781919685105953555e+00,1.000000000000000000e+00,0.000000000000000000e+00,0.000000000000000000e+00,1.000000000000000000e+00,0.000000000000000000e+00,-2.075455873301087772e-01,-1.556023774586240638e+00,0.000000000000000000e+00,1.357092299886664355e+00,0.000000000000000000e+00,3.280901708553781715e-01,-1.721499895881289932e+00,0.000000000000000000e+00,5.763649613577941366e-01,0.000000000000000000e+00,1.532062201129423817e-01,-1.721607698241725215e+00,0.000000000000000000e+00,7.180514730395315404e-01,0.000000000000000000e+00,-1.647108064375250036e-01,-1.477392676695655549e+00,0.000000000000000000e+00,1.267385213123215504e+00,0.000000000000000000e+00
3.099999999999999978e-01,-1.479138284921646118e-01,8.906530588865280151e-02,-7.172290980815887451e-02,-1.778652743805033687e+00,-5.694984613419806330e+00,2.988076161676828324e+00,1.000000000000000000e+00,0.000000000000000000e+00,0.000000000000000000e+00,1.000000000000000000e+00,0.000000000000000000e+00,-2.134159926428735587e-01,-1.582619619280980272e+00,0.000000000000000000e+00,1.371554682190035512e+00,0.000000000000000000e+00,3.359878967395264482e-01,-1.728329413815246296e+00,0.000000000000000000e+00,5.966255435299641086e-01,0.000000000000000000e+00,1.505973561978324049e-01,-1.725201661624384375e+00,0.000000000000000000e+00,7.374540236638618129e-01,0.000000000000000000e+00,-1.587376327488545513e-01,-1.504441551433769453e+00,0.000000000000000000e+00,1.281959411935409410e+00,0.000000000000000000e+00
3.150000000000000022e-01,-3.724122047424316406e-01,2.839362248778343201e-02,-8.597531169652938843e-02,-5.510267257096199689e-01,-5.555015411078127130e+00,3.674487379520345431e+00,1.000000000000000000e+00,0.000000000000000000e+00,0.000000000000000000e+00,1.000000000000000000e+00,0.000000000000000000e+00,-2.205763162331662863e-01,-1.650102346948981280e+00,0.000000000000000000e+00,1.400939314641004518e+00,0.000000000000000000e+00,3.449855727508632230e-01,-1.734842032805554712e+00,0.000000000000000000e+00,6.168732872398113853e-01,0.000000000000000000e+00,1.498518247512422297e-01,-1.729237865123950391e+00,0.000000000000000000e+00,7.570123317196099100e-01,0.000000000000000000e+00,-1.463365824899526824e-01,-1.571299650991235808e+00,0.000000000000000000e+00,1.310832771227312010e+00,0.000000000000000000e+00
3.200000000000000067e-01,-5.846169590950012207e-01,1.175709441304206848e-02,-1.362870186567306519e-01,-1.318737110334723857e-02,-5.129280709775946967e+00,4.808756764923629135e+00,1.000000000000000000e+00,0.000000000000000000e+00,0.000000000000000000e+00,1.000000000000000000e+00,0.000000000000000000e+00,-2.241588594381858923e-01,-1.740268261557540663e+00,0.000000000000000000e+00,1.438891623555030863e+00,0.000000000000000000e+00,3.553457675372670987e-01,-1.741015414889010460e+00,0.000000000000000000e+00,6.371570714146205239e-01,0.000000000000000000e+00,1.507916531996442433e-01,-1.733847039423959568e+00,0.000000000000000000e+00,7.770829804020105147e-01,0.000000000000000000e+00,-1.315860755260714332e-01,-1.660636382522955312e+00,0.000000000000000000e+00,1.347214668116852865e+00,0.000000000000000000e+00
3.250000000000000111e-01,-7.412332296371459961e-01,6.558685749769210815e-02,-1.942936182022094727e-01,3.377844954319362825e-01,-4.364616621009905550e+00,6.716386772651892656e+00,1.000000000000000000e+00,0.000000000000000000e+00,0.000000000000000000e+00,1.000000000000000000e+00,0.000000000000000000e+00,-2.205482148680880661e-01,-1.841325753475019145e+00,0.000000000000000000e+00,1.479006321506474375e+00,0.000000000000000000e+00,3.669984811540001890e-01,-1.747037139185849464e+00,0.000000000000000000e+00,6.573255847522013751e-01,0.000000000000000000e+00,1.531536086976421907e-01,-1.738695951048993660e+00,0.000000000000000000e+00,7.974289406671090097e-01,0.000000000000000000e+00,-1.168834423692131225e-01,-1.761268890805168574e+00,0.000000000000000000e+00,1.385064644432539627e+00,0.000000000000000000e+00
3.300000000000000155e-01,-7.904569506645202637e-01,1.951580494642257690e-01,-2.388969957828521729e-01,6.215111061877491849e-01,-3.338978236867991445e+00,9.358601842154424588e+00,1.000000000000000000e+00,0.000000000000000000e+00,0.000000000000000000e+00,1.000000000000000000e+00,0.000000000000000000e+00,-2.081393762867673192e-01,-1.945399384808912169e+00,0.000000000000000000e+00,1.514542706978777353e+00,0.000000000000000000e+00,3.794469691031466807e-01,-1.753190994367592515e+00,0.000000000000000000e+00,6.771567906480697729e-01,0.000000000000000000e+00,1.564511093956982291e-01,-1.743031584876487461e+00,0.000000000000000000e+00,8.173808807400896326e-01,0.000000000000000000e+00,-1.031313214551890789e-01,-1.865664177914731603e+00,0.000000000000000000e+00,1.418914321288266889e+00,0.000000000000000000e+00
3.350000000000000200e-01,-6.889603734016418457e-01,3.947389721870422363e-01,-2.613230049610137939e-01,8.831528918282519625e-01,-2.341205100215763668e+00,1.223419649928857744e+01,1.000000000000000000e+00,0.000000000000000000e+00,0.000000000000000000e+00,1.000000000000000000e+00,0.000000000000000000e+00,-1.877444840367080148e-01,-2.046849248508396890e+00,0.000000000000000000e+00,1.538497940881884629e+00,0.000000000000000000e+00,3.916719105087871911e-01,-1.759759808255872304e+00,0.000000000000000000e+00,6.964352165146798779e-01,0.000000000000000000e+00,1.599458698218282349e-01,-1.745936438514591460e+00,0.000000000000000000e+00,8.360823211495205243e-01,0.000000000000000000e+00,-9.003492942067760352e-02,-1.968365156409688010e+00,0.000000000000000000e+00,1.443672682434568255e+00,0.000000000000000000e+00
3.400000000000000244e-01,-4.406434595584869385e-01,6.381900906562805176e-01,-2.638122737407684326e-01,1.158507052141187099e+00,-1.706239913140978892e+00,1.458606845171837385e+01,1.000000000000000000e+00,0.000000000000000000e+00,0.000000000000000000e+00,1.000000000000000000e+00,0.000000000000000000e+00,-1.621476223817157336e-01,-2.141177363448397486e+00,0.000000000000000000e+00,1.544286135009248939e+00,0.000000000000000000e+00,4.020262510428862512e-01,-1.767000044622409227e+00,0.000000000000000000e+00,7.150071989235825543e-01,0.000000000000000000e+00,1.627270484746471679e-01,-1.746399029582851314e+00,0.000000000000000000e+00,8.526227793142057143e-01,0.000000000000000000e+00,-7.676854854064280032e-02,-2.065034551378790884e+00,0.000000000000000000e+00,1.454562398179483074e+00,0.000000000000000000e+00
3.450000000000000289e-01,-8.757943660020828247e-02,8.873900771141052246e-01,-2.521416842937469482e-01,1.324870828688025748e+00,-1.624553738021550675e+00,1.602408867880119914e+01,1.000000000000000000e+00,0.000000000000000000e+00,0.000000000000000000e+00,1.000000000000000000e+00,0.000000000000000000e+00,-1.350361052675023710e-01,-2.224491292602591486e+00,0.000000000000000000e+00,1.527141982823486899e+00,0.000000000000000000e+00,4.090080034265463627e-01,-1.775036331742753548e+00,0.000000000000000000e+00,7.328188144102509849e-01,0.000000000000000000e+00,1.639749283632505605e-01,-1.743628510980781421e+00,0.000000000000000000e+00,8.663263434966860244e-01,0.000000000000000000e+00,-6.272258902558446036e-02,-2.151971599130446222e+00,0.000000000000000000e+00,1.447559617174513757e+00,0.000000000000000000e+00
3.500000000000000333e-01,2.687351405620574951e-01,1.073246836662292480e+00,-2.310437858104705811e-01,1.258272839741511273e+00,-1.839751009848232810e+00,1.596469506912680281e+01,1.000000000000000000e+00,0.000000000000000000e+00,0.000000000000000000e+00,1.000000000000000000e+00,0.000000000000000000e+00,-1.099752478294644537e-01,-2.293525041280396692e+00,0.000000000000000000e+00,1.485707086385241515e+00,0.000000000000000000e+00,4.121899909271891094e-01,-1.783689676638559707e+00,0.000000000000000000e+00,7.498938599669822125e-01,0.000000000000000000e+00,1.632294705938595603e-01,-1.737300065635348112e+00,0.000000000000000000e+00,8.769721276732784787e-01,0.000000000000000000e+00,-4.789697208004744383e-02,-2.226026693295972247e+00,0.000000000000000000e+00,1.420394161634769281e+00,0.000000000000000000e+00
3.549999999999999822e-01,6.019725799560546875e-01,1.187461733818054199e+00,-2.050935029983520508e-01,8.274679476960742353e-01,-1.937185808195539538e+00,1.433807711412605990e+01,1.000000000000000000e+00,0.000000000000000000e+00,0.000000000000000000e+00,1.000000000000000000e+00,0.000000000000000000e+00,-8.963974073239455720e-02,-2.346041290020769221e+00,0.000000000000000000e+00,1.422670152777341768e+00,0.000000000000000000e+00,4.134177872503900786e-01,-1.792293854640686579e+00,0.000000000000000000e+00,7.662648652268029270e-01,0.000000000000000000e+00,1.605611558333496225e-01,-1.727687136136342394e+00,0.000000000000000000e+00,8.849245290128713304e-01,0.000000000000000000e+00,-3.291653199241985350e-02,-2.284750559632354516e+00,0.000000000000000000e+00,1.373496975996755243e+00,0.000000000000000000e+00
3.599999999999999867e-01,8.787227272987365723e-01,1.222546577453613281e+00,-1.797533333301544189e-01,2.659516792695482690e-01,-1.931640912502691654e+00,1.193245747965858961e+01,1.000000000000000000e+00,0.000000000000000000e+00,0.000000000000000000e+00,1.000000000000000000e+00,0.000000000000000000e+00,-7.531987862381767096e-02,-2.381274106191038520e+00,0.000000000000000000e+00,1.343704190764026807e+00,0.000000000000000000e+00,4.129688763836935617e-01,-1.800557612570683474e+00,0.000000000000000000e+00,7.821712272659051557e-01,0.000000000000000000e+00,1.562101235322330695e-01,-1.715447698410022648e+00,0.000000000000000000e+00,8.907934368235116418e-01,0.000000000000000000e+00,-1.895143181356072001e-02,-2.326775571632067496e+00,0.000000000000000000e+00,1.310012916251360515e+00,0.000000000000000000e+00
3.649999999999999911e-01,1.055089473724365234e+00,1.187853693962097168e+00,-1.603163033723831177e-01,-6.551751624021331932e-02,-1.862573086634166319e+00,9.375967905741475761e+00,1.000000000000000000e+00,0.000000000000000000e+00,0.000000000000000000e+00,1.000000000000000000e+00,0.000000000000000000e+00,-6.677580294096110980e-02,-2.399925089234455911e+00,0.000000000000000000e+00,1.255582298820830500e+00,0.000000000000000000e+00,4.111299744167661308e-01,-1.808284228847622410e+00,0.000000000000000000e+00,7.978798859375478836e-01,0.000000000000000000e+00,1.506297467067621021e-01,-1.701493962890319400e+00,0.000000000000000000e+00,8.953620916213498315e-01,0.000000000000000000e+00,-6.975724996290793775e-03,-2.352182029809700037e+00,0.000000000000000000e+00,1.235094621873516596e+00,0.000000000000000000e+00
3.699999999999999956e-01,1.152001619338989258e+00,1.098716616630554199e+00,-1.499091982841491699e-01,-1.049042619038118990e-01,-1.716021301754885320e+00,7.215743901615081057e+00,1.000000000000000000e+00,0.000000000000000000e+00,0.000000000000000000e+00,1.000000000000000000e+00,0.000000000000000000e+00,-6.270132797305372208e-02,-2.403964538495246384e+00,0.000000000000000000e+00,1.164553618335771867e+00,0.000000000000000000e+00,4.083661072132393488e-01,-1.815364384995845626e+00,0.000000000000000000e+00,8.136487521721509353e-01,0.000000000000000000e+00,1.443788711177372841e-01,-1.686793296865216396e+00,0.000000000000000000e+00,8.994536684572056462e-01,0.000000000000000000e+00,2.535303981061990362e-03,-2.362414257617490243e+00,0.000000000000000000e+00,1.154473230677604434e+00,0.000000000000000000e+00
3.750000000000000000e-01,1.194424152374267578e+00,9.725408554077148438e-01,-1.473435908555984497e-01,1.031363024960399305e-01,-1.533504659322341590e+00,5.662168281241271472e+00,1.000000000000000000e+00,0.000000000000000000e+00,0.000000000000000000e+00,1.000000000000000000e+00,0.000000000000000000e+00,-6.176329884470489057e-02,-2.396197588915879084e+00,0.000000000000000000e+00,1.075403728843996820e+00,0.000000000000000000e+00,4.050741087906748472e-01,-1.821778010740397358e+00,0.000000000000000000e+00,8.297161306494987842e-01,0.000000000000000000e+00,1.378752036621747334e-01,-1.672171516771669975e+00,0.000000000000000000e+00,9.037936066620601006e-01,0.000000000000000000e+00,9.364165126805655201e-03,-2.359888408187972075e+00,0.000000000000000000e+00,1.073194121061147532e+00,0.000000000000000000e+00
3.800000000000000044e-01,1.204977512359619141e+00,8.241419196128845215e-01,-1.496787220239639282e-01,4.520644954989399555e-01,-1.337100570878130057e+00,4.674583246723949870e+00,1.000000000000000000e+00,0.000000000000000000e+00,0.000000000000000000e+00,1.000000000000000000e+00,0.000000000000000000e+00,-6.296781548453696253e-02,-2.379721070763692659e+00,0.000000000000000000e+00,9.913465730159569667e-01,0.000000000000000000e+00,4.015358381347548522e-01,-1.827549639718991425e+00,0.000000000000000000e+00,8.462786678599760748e-01,0.000000000000000000e+00,1.313838632569349629e-01,-1.658232619703172706e+00,0.000000000000000000e+00,9.089398778025836734e-01,0.000000000000000000e+00,1.358772892890978100e-02,-2.347542649698585393e+00,0.000000000000000000e+00,9.951040516044725726e-01,0.000000000000000000e+00
3.850000000000000089e-01,1.202410459518432617e+00,6.638226509094238281e-01,-1.542857289314270020e-01,8.463294365233244854e-01,-1.153507340806021242e+00,4.111178923565081966e+00,1.000000000000000000e+00,0.000000000000000000e+00,0.000000000000000000e+00,1.000000000000000000e+00,0.000000000000000000e+00,-6.572960774580345611e-02,-2.357580057921162098e+00,0.000000000000000000e+00,9.143458995000898204e-01,0.000000000000000000e+00,3.979179765090615217e-01,-1.832719284420964323e+00,0.000000000000000000e+00,8.634864078139670163e-01,0.000000000000000000e+00,1.250415946622406849e-01,-1.645365556039282140e+00,0.000000000000000000e+00,9.152810125991559520e-01,0.000000000000000000e+00,1.540958985795395052e-02,-2.328370509856856341e+00,0.000000000000000000e+00,9.227912323416427309e-01,0.000000000000000000e+00
3.900000000000000133e-01,1.191316366195678711e+00,4.989207983016967773e-01,-1.590901911258697510e-01,1.225875932430065207e+00,-1.002855493569874135e+00,3.834596676988863972e+00,1.000000000000000000e+00,0.000000000000000000e+00,0.000000000000000000e+00,1.000000000000000000e+00,0.000000000000000000e+00,-6.975656236969411672e-02,-2.332594889304102637e+00,0.000000000000000000e+00,8.455232337528724162e-01,0.000000000000000000e+00,3.943060838992578088e-01,-1.837325122264026556e+00,0.000000000000000000e+00,8.814459059315213896e-01,0.000000000000000000e+00,1.189034951414504604e-01,-1.633793281093424588e+00,0.000000000000000000e+00,9.230691360872410600e-01,0.000000000000000000e+00,1.505228474260336506e-02,-2.305183299959720156e+00,0.000000000000000000e+00,8.578281198876952507e-01,0.000000000000000000e+00
3.950000000000000178e-01,1.175083994865417480e+00,3.335644304752349854e-01,-1.629330068826675415e-01,1.555782879503595728e+00,-8.822758116671264306e-01,3.744822693705039285e+00,1.000000000000000000e+00,0.000000000000000000e+00,0.000000000000000000e+00,1.000000000000000000e+00,0.000000000000000000e+00,-7.488526920012049393e-02,-2.307302269050887755e+00,0.000000000000000000e+00,7.854962601484226647e-01,0.000000000000000000e+00,3.907569311693434577e-01,-1.841391123622704296e+00,0.000000000000000000e+00,9.002231994468744558e-01,0.000000000000000000e+00,1.130006979623537494e-01,-1.623625435173964959e+00,0.000000000000000000e+00,9.324575576514108066e-01,0.000000000000000000e+00,1.275683957083348016e-02,-2.280515993738023717e+00,0.000000000000000000e+00,8.010893477857154998e-01,0.000000000000000000e+00
4.000000000000000222e-01,1.157036542892456055e+00,1.699529290199279785e-01,-1.651881337165832520e-01,1.819818894931580999e+00,-7.867960852637464475e-01,3.778753090095391176e+00,1.000000000000000000e+00,0.000000000000000000e+00,0.000000000000000000e+00,1.000000000000000000e+00,0.000000000000000000e+00,-8.103671812334968527e-02,-2.283941668455077956e+00,0.000000000000000000e+00,7.345973319541930779e-01,0.000000000000000000e+00,3.873063336307371318e-01,-1.844925842266242677e+00,0.000000000000000000e+00,9.198530539200484579e-01,0.000000000000000000e+00,1.073481651212256499e-01,-1.614896801574642105e+00,0.000000000000000000e+00,9.435333968693518925e-01,0.000000000000000000e+00,8.725730393275689042e-03,-2.256573671536633352e+00,0.000000000000000000e+00,7.530130611834949805e-01,0.000000000000000000e+00
4.050000000000000266e-01,1.139972925186157227e+00,9.214688092470169067e-03,-1.654804199934005737e-01,1.275711841903400812e+00,-8.869956127609112118e-01,4.412879426931082705e+00,1.000000000000000000e+00,0.000000000000000000e+00,0.000000000000000000e+00,1.000000000000000000e+00,0.000000000000000000e+00,-8.819572133489757271e-02,-2.264429953860195965e+00,0.000000000000000000e+00,6.929937832459469593e-01,0.000000000000000000e+00,3.839729083693308453e-01,-1.847926448681400879e+00,0.000000000000000000e+00,9.403470257761670226e-01,0.000000000000000000e+00,1.019465385898900567e-01,-1.607590567833609763e+00,0.000000000000000000e+00,9.563376508482654970e-01,0.000000000000000000e+00,3.104799286938422775e-03,-2.235215694722462398e+00,0.000000000000000000e+00,7.137867846667411698e-01,0.000000000000000000e+00
4.100000000000000311e-01,1.021312594413757324e+00,-8.277585357427597046e-02,-1.732086539268493652e-01,3.050247890329605971e-01,-1.018273953308278523e+00,5.375571911230557554e+00,1.000000000000000000e+00,0.000000000000000000e+00,0.000000000000000000e+00,1.000000000000000000e+00,0.000000000000000000e+00,-9.525054047865424978e-02,-2.247272324611670147e+00,0.000000000000000000e+00,6.591406593278515968e-01,0.000000000000000000e+00,3.809733934506485675e-01,-1.850379171624880081e+00,0.000000000000000000e+00,9.615155606349818918e-01,0.000000000000000000e+00,9.694747580001024378e-02,-1.601507713030732027e+00,0.000000000000000000e+00,9.706439461022398074e-01,0.000000000000000000e+00,-4.009722752356860258e-03,-2.215303294052840766e+00,0.000000000000000000e+00,6.818432711678222846e-01,0.000000000000000000e+00
4.150000000000000355e-01,8.752987384796142578e-01,-1.416455954313278198e-01,-1.702938675880432129e-01,-2.157502155746780781e-01,-9.454247130232992236e-01,5.998172490745520058e+00,1.000000000000000000e+00,0.000000000000000000e+00,0.000000000000000000e+00,1.000000000000000000e+00,0.000000000000000000e+00,-1.006450400209563251e-01,-2.229494406198587519e+00,0.000000000000000000e+00,6.297191322560787841e-01,0.000000000000000000e+00,3.787427244774860813e-01,-1.852303196614436764e+00,0.000000000000000000e+00,9.829606104498918029e-01,0.000000000000000000e+00,9.273119540426090490e-02,-1.596248587398179541e+00,0.000000000000000000e+00,9.858825697790501996e-01,0.000000000000000000e+00,-1.163368771360155998e-02,-2.194690418487067252e+00,0.000000000000000000e+00,6.540351803835841027e-01,0.000000000000000000e+00
4.199999999999999845e-01,7.325961589813232422e-01,-1.817503720521926880e-01,-1.638040691614151001e-01,-5.660434130252384177e-01,-8.120612555425329449e-01,6.416018695917911074e+00,1.000000000000000000e+00,0.000000000000000000e+00,0.000000000000000000e+00,1.000000000000000000e+00,0.000000000000000000e+00,-1.045185159232436684e-01,-2.210865799424786005e+00,0.000000000000000000e+00,6.030512345266629826e-01,0.000000000000000000e+00,3.773738196809981460e-01,-1.853723491647077282e+00,0.000000000000000000e+00,1.004475665462800649e+00,0.000000000000000000e+00,8.941724925293949300e-02,-1.591532275131545493e+00,0.000000000000000000e+00,1.001685912520593025e+00,0.000000000000000000e+00,-1.877038723508962434e-02,-2.173409817289277957e+00,0.000000000000000000e+00,6.289082424541454497e-01,0.000000000000000000e+00
4.249999999999999889e-01,6.034919023513793945e-01,-2.117717266082763672e-01,-1.569887101650238037e-01,-8.073855037933580503e-01,-6.756374968792558944e-01,6.708437020105588289e+00,1.000000000000000000e+00,0.000000000000000000e+00,0.000000000000000000e+00,1.000000000000000000e+00,0.000000000000000000e+00,-1.071657285388323416e-01,-2.191320522393761294e+00,0.000000000000000000e+00,5.783319548894739759e-01,0.000000000000000000e+00,3.768337356728225784e-01,-1.854671007306137209e+00,0.000000000000000000e+00,1.025944342057280911e+00,0.000000000000000000e+00,8.697155708440088007e-02,-1.587176362562471299e+00,0.000000000000000000e+00,1.017835332013058425e+00,0.000000000000000000e+00,-2.508718021705853146e-02,-2.151289094547539360e+00,0.000000000000000000e+00,6.054551602674285160e-01,0.000000000000000000e+00
4.299999999999999933e-01,4.910353124141693115e-01,-2.364166378974914551e-01,-1.499488204717636108e-01,-9.813438864769080672e-01,-5.440243407729185021e-01,6.947238857319386618e+00,1.000000000000000000e+00,0.000000000000000000e+00,0.000000000000000000e+00,1.000000000000000000e+00,0.000000000000000000e+00,-1.088301939701509652e-01,-2.170841307378291507e+00,0.000000000000000000e+00,5.551358268270316643e-01,0.000000000000000000e+00,3.770484305218886889e-01,-1.855174346236100114e+00,0.000000000000000000e+00,1.047301496090510931e+00,0.000000000000000000e+00,8.530907114578969996e-02,-1.583065680930652031e+00,0.000000000000000000e+00,1.034204058924836023e+00,0.000000000000000000e+00,-3.053121701983242328e-02,-2.128308034049474884e+00,0.000000000000000000e+00,5.830551633481707574e-01,0.000000000000000000e+00
4.349999999999999978e-01,3.968616425991058350e-01,-2.581584453582763672e-01,-1.427855789661407471e-01,-1.113122243974888015e+00,-4.141619988544886777e-01,7.164592995723078062e+00,1.000000000000000000e+00,0.000000000000000000e+00,0.000000000000000000e+00,1.000000000000000000e+00,0.000000000000000000e+00,-1.097331042006797625e-01,-2.149449843824132067e+00,0.000000000000000000e+00,5.331741977168422686e-01,0.000000000000000000e+00,3.779282790046912810e-01,-1.855255989576499731e+00,0.000000000000000000e+00,1.068508094521055440e+00,0.000000000000000000e+00,8.433222833598157109e-02,-1.579118052892146462e+00,0.000000000000000000e+00,1.050709714156887742e+00,0.000000000000000000e+00,-3.514137722692212140e-02,-2.104551809523941941e+00,0.000000000000000000e+00,5.613715942601256170e-01,0.000000000000000000e+00
4.400000000000000022e-01,3.232408463954925537e-01,-2.785067856311798096e-01,-1.357639580965042114e-01,-1.215460207819432759e+00,-2.864917655563152810e-01,7.378576401021678777e+00,1.000000000000000000e+00,0.000000000000000000e+00,0.000000000000000000e+00,1.000000000000000000e+00,0.000000000000000000e+00,-1.100907495465260344e-01,-2.127197200836440150e+00,0.000000000000000000e+00,5.122341318254801656e-01,0.000000000000000000e+00,3.793733093227485420e-01,-1.854934730327333137e+00,0.000000000000000000e+00,1.089539685664727919e+00,0.000000000000000000e+00,8.393453021510416390e-02,-1.575267518600324212e+00,0.000000000000000000e+00,1.067292763212752016e+00,0.000000000000000000e+00,-3.902895162497377335e-02,-2.080092956290366502e+00,0.000000000000000000e+00,5.402241127468888626e-01,0.000000000000000000e+00
4.450000000000000067e-01,2.707265317440032959e-01,-2.983704805374145508e-01,-1.290123164653778076e-01,-1.293107531517485365e+00,-1.685902284095965875e-01,7.601305487012838924e+00,1.000000000000000000e+00,0.000000000000000000e+00,0.000000000000000000e+00,1.000000000000000000e+00,0.000000000000000000e+00,-1.101226410398449262e-01,-2.104153619422227006e+00,0.000000000000000000e+00,4.921571097395636696e-01,0.000000000000000000e+00,3.812742159562058641e-01,-1.854226921866385380e+00,0.000000000000000000e+00,1.110380995877057630e+00,0.000000000000000000e+00,8.400006462083822734e-02,-1.571456211873387243e+00,0.000000000000000000e+00,1.083906423813331132e+00,0.000000000000000000e+00,-4.236666826979922779e-02,-2.054973817923539947e+00,0.000000000000000000e+00,5.195180344550692775e-01,0.000000000000000000e+00
4.500000000000000111e-01,2.362815737724304199e-01,-3.180468082427978516e-01,-1.225914135575294495e-01,-1.347713078393672381e+00,-7.206599292968128567e-02,7.839729989114139208e+00,1.000000000000000000e+00,0.000000000000000000e+00,0.000000000000000000e+00,1.000000000000000000e+00,0.000000000000000000e+00,-1.100353617964331260e-01,-2.080397384049721854e+00,0.000000000000000000e+00,4.728265136642544331e-01,0.000000000000000000e+00,3.835236646125262938e-01,-1.853143788737077635e+00,0.000000000000000000e+00,1.131020247574694659e+00,0.000000000000000000e+00,8.441566196957470125e-02,-1.567630949676447338e+00,0.000000000000000000e+00,1.100510886081505602e+00,0.000000000000000000e+00,-4.534624223589580477e-02,-2.029225608458994135e+00,0.000000000000000000e+00,4.992126699628738340e-01,0.000000000000000000e+00
4.550000000000000155e-01,2.127094864845275879e-01,-3.372553288936614990e-01,-1.165829524397850037e-01,-1.380865463839189733e+00,-3.128717092770088096e-03,8.096331036072040632e+00,1.000000000000000000e+00,0.000000000000000000e+00,0.000000000000000000e+00,1.000000000000000000e+00,0.000000000000000000e+00,-1.099848272843313712e-01,-2.056000480303747491e+00,0.000000000000000000e+00,4.541581243530542489e-01,0.000000000000000000e+00,3.860354224151654745e-01,-1.851687103952645019e+00,0.000000000000000000e+00,1.151442487230230238e+00,0.000000000000000000e+00,8.509112347880165572e-02,-1.563742672308398696e+00,0.000000000000000000e+00,1.117069853328985118e+00,0.000000000000000000e+00,-4.812511691050024021e-02,-2.002882658392834525e+00,0.000000000000000000e+00,4.793001895654500633e-01,0.000000000000000000e+00
4.600000000000000200e-01,1.926321983337402344e-01,-3.555702865123748779e-01,-1.111004054546356201e-01,-1.398514741691228025e+00,4.295632278983172597e-02,8.371160594726237747e+00,1.000000000000000000e+00,0.000000000000000000e+00,0.000000000000000000e+00,1.000000000000000000e+00,0.000000000000000000e+00,-1.100445638272634363e-01,-2.031017695394587097e+00,0.000000000000000000e+00,4.360901828038164507e-01,0.000000000000000000e+00,3.887595823870768630e-01,-1.849846147835991328e+00,0.000000000000000000e+00,1.171624256081691851e+00,0.000000000000000000e+00,8.597502520901041667e-02,-1.559746558334989208e+00,0.000000000000000000e+00,1.133548515695939285e+00,0.000000000000000000e+00,-5.078828024257660972e-02,-1.975985527613290937e+00,0.000000000000000000e+00,4.597879110234823208e-01,0.000000000000000000e+00
4.650000000000000244e-01,1.715598106384277344e-01,-3.723309040069580078e-01,-1.062106415629386902e-01,-1.405521550425251176e+00,7.455306210382435517e-02,8.660823982892429385e+00,1.000000000000000000e+00,0.000000000000000000e+00,0.000000000000000000e+00,1.000000000000000000e+00,0.000000000000000000e+00,-1.102136258001378127e-01,-2.005479208176152994e+00,0.000000000000000000e+00,4.185681983284829655e-01,0.000000000000000000e+00,3.916793782082564346e-01,-1.847599635560381426e+00,0.000000000000000000e+00,1.191532793744764396e+00,0.000000000000000000e+00,8.705116931214557097e-02,-1.555600123014500680e+00,0.000000000000000000e+00,1.149911254600124888e+00,0.000000000000000000e+00,-5.335251036497121180e-02,-1.948569262666645541e+00,0.000000000000000000e+00,4.406808107517122819e-01,0.000000000000000000e+00
4.700000000000000289e-01,1.472378373146057129e-01,-3.870837092399597168e-01,-1.019127145409584045e-01,-1.400311435076797562e+00,9.874756963417723188e-02,8.957914980285218931e+00,1.000000000000000000e+00,0.000000000000000000e+00,0.000000000000000000e+00,1.000000000000000000e+00,0.000000000000000000e+00,-1.104467275881498289e-01,-1.979390230031536246e+00,0.000000000000000000e+00,4.015306923935653138e-01,0.000000000000000000e+00,3.947975478165872132e-01,-1.844921050619920955e+00,0.000000000000000000e+00,1.211128174926823897e+00,0.000000000000000000e+00,8.832432546881188729e-02,-1.551259779514712944e+00,0.000000000000000000e+00,1.166118182678099746e+00,0.000000000000000000e+00,-5.578949715732819253e-02,-1.920659038745459180e+00,0.000000000000000000e+00,4.219699754910339884e-01,0.000000000000000000e+00
4.750000000000000333e-01,1.195152401924133301e-01,-3.996912539005279541e-01,-9.819068014621734619e-02,-1.378649486735330498e+00,1.205230312476885807e-01,9.254589610872001160e+00,1.000000000000000000e+00,0.000000000000000000e+00,0.000000000000000000e+00,1.000000000000000000e+00,0.000000000000000000e+00,-1.106816043030032920e-01,-1.952743075510438686e+00,0.000000000000000000e+00,3.849123566063165636e-01,0.000000000000000000e+00,3.981247487727338497e-01,-1.841782088393303596e+00,0.000000000000000000e+00,1.230366890489986265e+00,0.000000000000000000e+00,8.980831398335810400e-02,-1.546680438228327459e+00,0.000000000000000000e+00,1.182125896756086592e+00,0.000000000000000000e+00,-5.804765602010492076e-02,-1.892275907440984728e+00,0.000000000000000000e+00,4.036363896530092421e-01,0.000000000000000000e+00
4.799999999999999822e-01,8.960498869419097900e-02,-4.102968871593475342e-01,-9.501965343952178955e-02,-1.335878254194223125e+00,1.417657328431584096e-01,9.544386406265864764e+00,1.000000000000000000e+00,0.000000000000000000e+00,0.000000000000000000e+00,1.000000000000000000e+00,0.000000000000000000e+00,-1.108605800401958885e-01,-1.925529823373943072e+00,0.000000000000000000e+00,3.686540302195626673e-01,0.000000000000000000e+00,4.016698700301306602e-01,-1.838155046504757362e+00,0.000000000000000000e+00,1.249205655048819308e+00,0.000000000000000000e+00,9.151582609360728315e-02,-1.541816003553573955e+00,0.000000000000000000e+00,1.197889650495352232e+00,0.000000000000000000e+00,-6.007396668370790227e-02,-1.863440445700945691e+00,0.000000000000000000e+00,3.856592614872504376e-01,0.000000000000000000e+00
4.849999999999999867e-01,5.924753844738006592e-02,-4.191959500312805176e-01,-9.237501025199890137e-02,-1.268714139817369579e+00,1.619424293495846379e-01,9.822912217140046920e+00,1.000000000000000000e+00,0.000000000000000000e+00,0.000000000000000000e+00,1.000000000000000000e+00,0.000000000000000000e+00,-1.109422823052879786e-01,-1.897750307310575479e+00,0.000000000000000000e+00,3.527115657293747875e-01,0.000000000000000000e+00,4.054343847769990017e-01,-1.834013985976842065e+00,0.000000000000000000e+00,1.267604236919063210e+00,0.000000000000000000e+00,9.345237711038693884e-02,-1.536620067914650889e+00,0.000000000000000000e+00,1.213365517378000691e+00,0.000000000000000000e+00,-6.182835771100833600e-02,-1.834176151147636880e+00,0.000000000000000000e+00,3.680244125148744994e-01,0.000000000000000000e+00
4.899999999999999911e-01,3.013263456523418427e-02,-4.267016947269439697e-01,-9.023730456829071045e-02,-1.175703405280456915e+00,1.790177716221526827e-01,1.008757612275719140e+01,1.000000000000000000e+00,0.000000000000000000e+00,0.000000000000000000e+00,1.000000000000000000e+00,0.000000000000000000e+00,-1.109043899978406911e-01,-1.869414504489965489e+00,0.000000000000000000e+00,3.370597608130657674e-01,0.000000000000000000e+00,4.094107050247913770e-01,-1.829334985155043336e+00,0.000000000000000000e+00,1.285526878149156893e+00,0.000000000000000000e+00,9.561435397045404960e-02,-1.531046364371820179e+00,0.000000000000000000e+00,1.228511717910276024e+00,0.000000000000000000e+00,-6.328980422561862607e-02,-1.804509913583930869e+00,0.000000000000000000e+00,3.507287466524129926e-01,0.000000000000000000e+00
4.949999999999999956e-01,3.462082706391811371e-03,-4.330480992794036865e-01,-8.859173953533172607e-02,-1.056688598031859883e+00,1.904824463330296036e-01,1.033685595765914655e+01,1.000000000000000000e+00,0.000000000000000000e+00,0.000000000000000000e+00,1.000000000000000000e+00,0.000000000000000000e+00,-1.107405890158993794e-01,-1.840540534557413954e+00,0.000000000000000000e+00,3.216909804703281806e-01,0.000000000000000000e+00,4.135833476605998982e-01,-1.824095899357344619e+00,0.000000000000000000e+00,1.302942509348845812e+00,0.000000000000000000e+00,9.798997700951135592e-02,-1.525048866166191841e+00,0.000000000000000000e+00,1.243288963398674563e+00,0.000000000000000000e+00,-6.445579511819420071e-02,-1.774470538037733691e+00,0.000000000000000000e+00,3.337803370254625035e-01,0.000000000000000000e+00
5.000000000000000000e-01,-2.025392279028892517e-02,-4.384410381317138672e-01,-8.743694424629211426e-02,-4.619695398330992409e-01,1.655442846254522760e+00,1.209635198858862104e+01,1.000000000000000000e+00,0.000000000000000000e+00,0.000000000000000000e+00,1.000000000000000000e+00,0.000000000000000000e+00,-1.104544294236424196e-01,-1.811150557409951567e+00,0.000000000000000000e+00,3.066105254211398679e-01,0.000000000000000000e+00,4.179318979736348916e-01,-1.818275718686052533e+00,0.000000000000000000e+00,1.319824150855708700e+00,0.000000000000000000e+00,1.005621829272817513e-01,-1.518581806020083302e+00,0.000000000000000000e+00,1.257660332813713699e+00,0.000000000000000000e+00,-6.533727902390464026e-02,-1.744086521774730780e+00,0.000000000000000000e+00,3.171956236850999589e-01,0.000000000000000000e+00
5.050000000000000044e-01,-1.325811538845300674e-02,-4.366465806961059570e-01,-9.440836310386657715e-02,3.419569747570432861e-01,2.836789358736100386e+00,1.319716280512289686e+01,1.000000000000000000e+00,0.000000000000000000e+00,0.000000000000000000e+00,1.000000000000000000e+00,0.000000000000000000e+00,-1.109498251185304374e-01,-1.779221791971165700e+00,0.000000000000000000e+00,2.923124304152543984e-01,0.000000000000000000e+00,4.223034674348848383e-01,-1.811745136069847106e+00,0.000000000000000000e+00,1.336138210327393994e+00,0.000000000000000000e+00,1.032161648440124008e-01,-1.511540935566435984e+00,0.000000000000000000e+00,1.271606695495720585e+00,0.000000000000000000e+00,-6.663006108424296414e-02,-1.697012812896376843e+00,0.000000000000000000e+00,3.009921645415485347e-01,0.000000000000000000e+00
5.100000000000000089e-01,4.802450165152549744e-02,-4.673499763011932373e-01,-5.987366661429405212e-02,4.907197623677380660e-01,2.718014120656881527e+00,1.249860754077372782e+01,1.000000000000000000e+00,0.000000000000000000e+00,1.000000000000000000e+00,1.000000000000000000e+00,0.000000000000000000e+00,-1.138793484920250232e-01,-1.731672667615916206e+00,0.000000000000000000e+00,2.776267889145007661e-01,0.000000000000000000e+00,4.262883372653445413e-01,-1.804199240462444065e+00,0.000000000000000000e+00,1.351642246633676381e+00,0.000000000000000000e+00,1.055915670805956386e-01,-1.503573636317041995e+00,0.000000000000000000e+00,1.284869723883042880e+00,0.000000000000000000e+00,-6.951746342748908736e-02,-1.611560691055718086e+00,0.000000000000000000e+00,2.889622869261228022e-01,0.000000000000000000e+00
5.150000000000000133e-01,8.851540088653564453e-02,-4.862775504589080811e-01,-4.874651134014129639e-02,4.978635960130061711e-01,2.778731936398261659e+00,1.030745492873655600e+01,1.000000000000000000e+00,0.000000000000000000e+00,1.000000000000000000e+00,1.000000000000000000e+00,0.000000000000000000e+00,-1.194057604479867585e-01,-1.668546841521490576e+00,0.000000000000000000e+00,2.620018407942448224e-01,0.000000000000000000e+00,4.296770897936962319e-01,-1.795671771484643298e+00,0.000000000000000000e+00,1.366550760479070536e+00,0.000000000000000000e+00,1.076794273020764414e-01,-1.494810970797039396e+00,0.000000000000000000e+00,1.297625800622918657e+00,0.000000000000000000e+00,-6.813752469881001472e-02,-1.645341411031507217e+00,0.000000000000000000e+00,3.164569692260915112e-01,0.000000000000000000e+00
5.200000000000000178e-01,-1.438625305891036987e-01,-3.565434813499450684e-01,9.389455430209636688e-03,6.891232918774454763e-01,2.746402136422019247e+00,9.834953329908469044e+00,1.000000000000000000e+00,1.000000000000000000e+00,1.000000000000000000e+00,1.000000000000000000e+00,0.000000000000000000e+00,-1.270111115847208372e-01,-1.590481685238893883e+00,0.000000000000000000e+00,2.446726173757757528e-01,0.000000000000000000e+00,4.325869788484142942e-01,-1.786260640822596502e+00,0.000000000000000000e+00,1.380817715285972191e+00,0.000000000000000000e+00,1.094381783027821298e-01,-1.485318391321177156e+00,0.000000000000000000e+00,1.309891657021062805e+00,0.000000000000000000e+00,-6.711718549839112979e-02,-1.676207499584670080e+00,0.000000000000000000e+00,3.449777136132719524e-01,0.000000000000000000e+00
5.250000000000000222e-01,-1.514116227626800537e-01,-3.501463532447814941e-01,2.535990998148918152e-02,8.539872692900210005e-01,2.796876691610692411e+00,1.146198927415042057e+01,1.000000000000000000e+00,1.000000000000000000e+00,1.000000000000000000e+00,1.000000000000000000e+00,0.000000000000000000e+00,-1.270358922720519201e-01,-1.575838136803196399e+00,0.000000000000000000e+00,2.426628580555394432e-01,0.000000000000000000e+00,4.362496808292104511e-01,-1.776754948285719893e+00,0.000000000000000000e+00,1.394481227210379926e+00,0.000000000000000000e+00,1.122520095335547557e-01,-1.475092087384559214e+00,0.000000000000000000e+00,1.320967582772826221e+00,0.000000000000000000e+00,-6.524880838992626331e-02,-1.703623629745747881e+00,0.000000000000000000e+00,3.724616751645483670e-01,0.000000000000000000e+00
5.300000000000000266e-01,-1.338699311017990112e-01,-3.485629856586456299e-01,3.524180874228477478e-02,1.035118698423355799e+00,2.753113436596993147e+00,1.158035145841843594e+01,1.000000000000000000e+00,1.000000000000000000e+00,1.000000000000000000e+00,1.000000000000000000e+00,0.000000000000000000e+00,-1.251442064980875513e-01,-1.581073951775962438e+00,0.000000000000000000e+00,2.472888274096784744e-01,0.000000000000000000e+00,4.399498986048751559e-01,-1.766706304052313214e+00,0.000000000000000000e+00,1.407547188311463859e+00,0.000000000000000000e+00,1.152910143685606931e-01,-1.464138590980406995e+00,0.000000000000000000e+00,1.331287833952708333e+00,0.000000000000000000e+00,-6.326022852858105561e-02,-1.728644144842186758e+00,0.000000000000000000e+00,3.994815029101421167e-01,0.000000000000000000e+00
5.350000000000000311e-01,-1.159805059432983398e-01,-3.464178442955017090e-01,4.379753768444061279e-02,1.195721754455684183e+00,2.687933090752990584e+00,1.167055000162243417e+01,1.000000000000000000e+00,1.000000000000000000e+00,1.000000000000000000e+00,1.000000000000000000e+00,0.000000000000000000e+00,-1.235976004840193126e-01,-1.588570844437410923e+00,0.000000000000000000e+00,2.551661278049341397e-01,0.000000000000000000e+00,4.433281270845766397e-01,-1.755920880677200646e+00,0.000000000000000000e+00,1.420015983873394783e+00,0.000000000000000000e+00,1.181212094111742800e-01,-1.452429128257939128e+00,0.000000000000000000e+00,1.341028469876778928e+00,0.000000000000000000e+00,-6.152928259577526704e-02,-1.751891880047227401e+00,0.000000000000000000e+00,4.263292297933130581e-01,0.000000000000000000e+00
5.400000000000000355e-01,-9.953076392412185669e-02,-3.433657586574554443e-01,5.131837725639343262e-02,1.337233718745495459e+00,2.606528375268610365e+00,1.173952953614818817e+01,1.000000000000000000e+00,1.000000000000000000e+00,1.000000000000000000e+00,1.000000000000000000e+00,0.000000000000000000e+00,-1.223901539758600193e-01,-1.598573100063693353e+00,0.000000000000000000e+00,2.666696523721026613e-01,0.000000000000000000e+00,4.463818403020621273e-01,-1.744376030532051036e+00,0.000000000000000000e+00,1.431869066133192536e+00,0.000000000000000000e+00,1.207308223493552407e-01,-1.439926985795668912e+00,0.000000000000000000e+00,1.350169860905846564e+00,0.000000000000000000e+00,-6.006120561520041784e-02,-1.773681070429756312e+00,0.000000000000000000e+00,4.530947807360553581e-01,0.000000000000000000e+00
5.450000000000000400e-01,-8.557146787643432617e-02,-3.390033841133117676e-01,5.785012990236282349e-02,1.456747370993558999e+00,2.510242588665145380e+00,1.178672329661379159e+01,1.000000000000000000e+00,1.000000000000000000e+00,1.000000000000000000e+00,1.000000000000000000e+00,0.000000000000000000e+00,-1.215036837029511430e-01,-1.611284066285855410e+00,0.000000000000000000e+00,2.821883845461202744e-01,0.000000000000000000e+00,4.491220291679309806e-01,-1.732050813599097072e+00,0.000000000000000000e+00,1.443085297677228374e+00,0.000000000000000000e+00,1.231246816830258717e-01,-1.426596219029524271e+00,0.000000000000000000e+00,1.358687965897523720e+00,0.000000000000000000e+00,-5.884473186397249506e-02,-1.794209260063990286e+00,0.000000000000000000e+00,4.798337100974316982e-01,0.000000000000000000e+00
5.500000000000000444e-01,-7.500874996185302734e-02,-3.329396247863769531e-01,6.349402666091918945e-02,-6.172360822744028530e-01,3.427835026661016471e+00,1.172600639181457538e+01,1.000000000000000000e+00,1.000000000000000000e+00,1.000000000000000000e+00,1.000000000000000000e+00,0.000000000000000000e+00,-1.209134097599160879e-01,-1.626880250497750424e+00,0.000000000000000000e+00,3.021663514515070537e-01,0.000000000000000000e+00,4.515664876600282707e-01,-1.718927648115657902e+00,0.000000000000000000e+00,1.453642975712631236e+00,0.000000000000000000e+00,1.253144314277959692e-01,-1.412401389300179222e+00,0.000000000000000000e+00,1.366555808313586029e+00,0.000000000000000000e+00,-5.786082189609541987e-02,-1.813598398056561534e+00,0.000000000000000000e+00,5.065772177367912077e-01,0.000000000000000000e+00
5.550000000000000488e-01,3.760708868503570557e-02,-1.674732863903045654e-01,9.905914962291717529e-02,-3.994768697405376656e+00,4.750301993380421806e+00,8.711246832844636856e+00,0.000000000000000000e+00,1.000000000000000000e+00,1.000000000000000000e+00,0.000000000000000000e+00,0.000000000000000000e+00,-1.208800370198469809e-01,-1.645250080897373568e+00,0.000000000000000000e+00,3.262887626999343982e-01,0.000000000000000000e+00,4.534007829623879493e-01,-1.710151133602310747e+00,0.000000000000000000e+00,1.462999912207868292e+00,0.000000000000000000e+00,1.260259095458344525e-01,-1.403394748258542712e+00,0.000000000000000000e+00,1.374202329998764904e+00,0.000000000000000000e+00,-5.731761673343396812e-02,-1.831681046102882737e+00,0.000000000000000000e+00,5.329495947258031663e-01,0.000000000000000000e+00
5.600000000000000533e-01,-1.842751652002334595e-01,-2.459565997123718262e-01,8.376647531986236572e-02,-4.271488658461726651e+00,5.101699906309733024e+00,6.216524815787209057e+00,0.000000000000000000e+00,1.000000000000000000e+00,1.000000000000000000e+00,0.000000000000000000e+00,0.000000000000000000e+00,-1.212461228828036197e-01,-1.663824020113693569e+00,0.000000000000000000e+00,3.503770674567298071e-01,0.000000000000000000e+00,4.593800922099354200e-01,-1.732960620397772544e+00,0.000000000000000000e+00,1.477585269210978103e+00,0.000000000000000000e+00,1.213057101969118312e-01,-1.431415289527063539e+00,0.000000000000000000e+00,1.390710681298737761e+00,0.000000000000000000e+00,-5.712112481885539550e-02,-1.848365754896533764e+00,0.000000000000000000e+00,5.583182280568705913e-01,0.000000000000000000e+00
5.650000000000000577e-01,-3.610948026180267334e-01,-3.348261415958404541e-01,1.098582744598388672e-01,-2.786903210262738462e+00,5.184709759064999979e+00,7.184373017501681780e+00,0.000000000000000000e+00,1.000000000000000000e+00,1.000000000000000000e+00,0.000000000000000000e+00,0.000000000000000000e+00,-1.210125434229211844e-01,-1.682120057162486582e+00,0.000000000000000000e+00,3.744032188393537908e-01,0.000000000000000000e+00,4.740602580103082664e-01,-1.794695322485513778e+00,0.000000000000000000e+00,1.505150354501094467e+00,0.000000000000000000e+00,1.138180909554331877e-01,-1.500808935771712260e+00,0.000000000000000000e+00,1.421171864196505208e+00,0.000000000000000000e+00,-5.635787149930572559e-02,-1.864557931387005318e+00,0.000000000000000000e+00,5.835828580018758149e-01,0.000000000000000000e+00
5.700000000000000622e-01,-3.975493907928466797e-01,-3.787412345409393311e-01,1.618367135524749756e-01,-1.938821303059886869e+00,5.199764450810954841e+00,8.405519462232204475e+00,0.000000000000000000e+00,1.000000000000000000e+00,1.000000000000000000e+00,0.000000000000000000e+00,0.000000000000000000e+00,-1.207292212510414076e-01,-1.700084134309642225e+00,0.000000000000000000e+00,3.984395383944138724e-01,0.000000000000000000e+00,4.923208759421029979e-01,-1.879006792243682833e+00,0.000000000000000000e+00,1.540281541041053082e+00,0.000000000000000000e+00,1.067599365790139893e-01,-1.593402175284563738e+00,0.000000000000000000e+00,1.458923095516003077e+00,0.000000000000000000e+00,-5.529801255412567645e-02,-1.880463944587457137e+00,0.000000000000000000e+00,6.090846716114260984e-01,0.000000000000000000e+00
5.750000000000000666e-01,-3.209571242332458496e-01,-3.522372543811798096e-01,2.234087586402893066e-01,-1.271667649328761973e+00,4.810194938858336045e+00,1.001074141612987667e+01,0.000000000000000000e+00,1.000000000000000000e+00,1.000000000000000000e+00,0.000000000000000000e+00,0.000000000000000000e+00,-1.212337802887664961e-01,-1.717731471013545175e+00,0.000000000000000000e+00,4.222707143266898333e-01,0.000000000000000000e+00,5.086257437929451175e-01,-1.974787340624115206e+00,0.000000000000000000e+00,1.576868645772096622e+00,0.000000000000000000e+00,1.010619612148204310e-01,-1.697512077206949632e+00,0.000000000000000000e+00,1.498140587372271959e+00,0.000000000000000000e+00,-5.458637977005326158e-02,-1.895931383160508910e+00,0.000000000000000000e+00,6.346854033508335657e-01,0.000000000000000000e+00
5.799999999999999600e-01,-2.043271958827972412e-01,-2.508517205715179443e-01,2.807874083518981934e-01,-5.908533326574354483e-01,3.978139166800640059e+00,1.197838556497153917e+01,0.000000000000000000e+00,1.000000000000000000e+00,1.000000000000000000e+00,0.000000000000000000e+00,0.000000000000000000e+00,-1.230666765926848455e-01,-1.735144420683993216e+00,0.000000000000000000e+00,4.455964248185059762e-01,0.000000000000000000e+00,5.185999292010832207e-01,-2.074301745399088404e+00,0.000000000000000000e+00,1.608158829285698976e+00,0.000000000000000000e+00,9.651411346853631945e-02,-1.805312793551492767e+00,0.000000000000000000e+00,1.533589592994344830e+00,0.000000000000000000e+00,-5.466847451293976867e-02,-1.910565382951507463e+00,0.000000000000000000e+00,6.599813767204082415e-01,0.000000000000000000e+00
5.849999999999999645e-01,-1.156697347760200500e-01,-8.575063198804855347e-02,3.254945874214172363e-01,1.063152723947405898e-01,2.930184280140124553e+00,1.407252702971771718e+01,0.000000000000000000e+00,1.000000000000000000e+00,1.000000000000000000e+00,0.000000000000000000e+00,0.000000000000000000e+00,-1.262903036388882128e-01,-1.752420880511249335e+00,0.000000000000000000e+00,4.681420337593786285e-01,0.000000000000000000e+00,5.198071345333551418e-01,-2.171741507129024029e+00,0.000000000000000000e+00,1.626817899441165727e+00,0.000000000000000000e+00,9.228719215269969023e-02,-1.911289591605926486e+00,0.000000000000000000e+00,1.560505744419031782e+00,0.000000000000000000e+00,-5.559529208739983491e-02,-1.923802377786841600e+00,0.000000000000000000e+00,6.844519364649853665e-01,0.000000000000000000e+00
5.899999999999999689e-01,-9.485201537609100342e-02,1.216033250093460083e-01,3.535291254520416260e-01,6.720864585183227158e-01,2.023308512031420037e+00,1.586480368005967811e+01,0.000000000000000000e+00,1.000000000000000000e+00,1.000000000000000000e+00,0.000000000000000000e+00,0.000000000000000000e+00,-1.305688158861988135e-01,-1.769616130341678861e+00,0.000000000000000000e+00,4.897148508820482471e-01,0.000000000000000000e+00,5.118089800845160298e-01,-2.262284618876256648e+00,0.000000000000000000e+00,1.625667831471911073e+00,0.000000000000000000e+00,8.738797042753018718e-02,-2.011287980943702536e+00,0.000000000000000000e+00,1.574608869713862935e+00,0.000000000000000000e+00,-5.707684459162080254e-02,-1.935001940610901805e+00,0.000000000000000000e+00,7.075774899512606853e-01,0.000000000000000000e+00
5.949999999999999734e-01,-1.401502043008804321e-01,3.409797549247741699e-01,3.627241551876068115e-01,9.100962844947296793e-01,1.547525674645954474e+00,1.686860336435276508e+01,0.000000000000000000e+00,1.000000000000000000e+00,1.000000000000000000e+00,0.000000000000000000e+00,0.000000000000000000e+00,-1.353648325396848706e-01,-1.786709511359760416e+00,0.000000000000000000e+00,5.102310443319408861e-01,0.000000000000000000e+00,4.958100316281365272e-01,-2.341646314006700980e+00,0.000000000000000000e+00,1.599453275616903092e+00,0.000000000000000000e+00,8.112270954499579967e-02,-2.101963317430622258e+00,0.000000000000000000e+00,1.572362479422936721e+00,0.000000000000000000e+00,-5.866785401940329686e-02,-1.943624772815870205e+00,0.000000000000000000e+00,7.289493602070261646e-01,0.000000000000000000e+00
5.999999999999999778e-01,-2.133271545171737671e-01,5.393943786621093750e-01,3.531242907047271729e-01,7.529538921375329430e-01,1.579408590660917211e+00,1.675024285560870041e+01,0.000000000000000000e+00,1.000000000000000000e+00,1.000000000000000000e+00,0.000000000000000000e+00,0.000000000000000000e+00,-1.401771435840897806e-01,-1.803583612113606183e+00,0.000000000000000000e+00,5.297232087647343324e-01,0.000000000000000000e+00,4.741234657947964726e-01,-2.406200935227586601e+00,0.000000000000000000e+00,1.547097041322146094e+00,0.000000000000000000e+00,7.340170914733530616e-02,-2.180522618422283454e+00,0.000000000000000000e+00,1.551529711741244322e+00,0.000000000000000000e+00,-6.001066997440350492e-02,-1.949382371130096603e+00,0.000000000000000000e+00,7.483496059931191713e-01,0.000000000000000000e+00
6.049999999999999822e-01,-2.669941484928131104e-01,6.891881227493286133e-01,3.306613564491271973e-01,3.572704384472982775e-01,1.980564794829522413e+00,1.555250151324274199e+01,0.000000000000000000e+00,1.000000000000000000e+00,1.000000000000000000e+00,0.000000000000000000e+00,0.000000000000000000e+00,-1.447359812303325721e-01,-1.820047523819837698e+00,0.000000000000000000e+00,5.483274209205848404e-01,0.000000000000000000e+00,4.493909345481401640e-01,-2.453562119724538970e+00,0.000000000000000000e+00,1.472670765770413226e+00,0.000000000000000000e+00,6.481613162870361600e-02,-2.244713122001095407e+00,0.000000000000000000e+00,1.511801227666087044e+00,0.000000000000000000e+00,-6.101187513166263926e-02,-1.952339715665676101e+00,0.000000000000000000e+00,7.658025211152187373e-01,0.000000000000000000e+00
6.099999999999999867e-01,-2.671800851821899414e-01,7.749137878417968750e-01,3.063593208789825439e-01,-1.144064785242611230e-02,2.463375278177466043e+00,1.373120839212740840e+01,0.000000000000000000e+00,1.000000000000000000e+00,1.000000000000000000e+00,0.000000000000000000e+00,0.000000000000000000e+00,-1.490800344766426699e-01,-1.835895439982585753e+00,0.000000000000000000e+00,5.662553795746546603e-01,0.000000000000000000e+00,4.236530086832253073e-01,-2.483118997557564711e+00,0.000000000000000000e+00,1.383838365089957501e+00,0.000000000000000000e+00,5.638999072214118113e-02,-2.293106806440435186e+00,0.000000000000000000e+00,1.455178741076934124e+00,0.000000000000000000e+00,-6.185884128207472243e-02,-1.952923342859722577e+00,0.000000000000000000e+00,7.815902252084496737e-01,0.000000000000000000e+00
